; G-Code generated by Simplify3D(R) Version 3.1.1
; Feb 24, 2017 at 12:36:13 PM
; Settings Summary
;   applyToModels,C2 Bed Level - Spiral
;   profileName,C2
;   profileVersion,2017-02-20 11:30:10
;   baseProfile,Robo3D R1 (with auto-leveler)(9) (modified)
;   printMaterial,PLA
;   printQuality,Fast
;   printExtruders,
;   extruderName,Primary Extruder
;   extruderToolheadNumber,0
;   extruderDiameter,0.4
;   extruderAutoWidth,0
;   extruderWidth,0.4
;   extrusionMultiplier,1
;   extruderUseRetract,1
;   extruderRetractionDistance,1
;   extruderExtraRestartDistance,0
;   extruderRetractionZLift,1
;   extruderRetractionSpeed,1800
;   extruderUseCoasting,0
;   extruderCoastingDistance,0.2
;   extruderUseWipe,0
;   extruderWipeDistance,5
;   primaryExtruder,0
;   layerHeight,0.3
;   topSolidLayers,10
;   bottomSolidLayers,5
;   perimeterOutlines,3
;   printPerimetersInsideOut,1
;   startPointOption,1
;   startPointOriginX,112
;   startPointOriginY,0
;   startPointOriginZ,0
;   sequentialIslands,0
;   spiralVaseMode,0
;   firstLayerHeightPercentage,150
;   firstLayerWidthPercentage,150
;   firstLayerUnderspeed,0.5
;   useRaft,0
;   raftExtruder,0
;   raftLayers,3
;   raftOffset,8
;   raftSeparationDistance,0.2
;   raftInfill,100
;   disableRaftBaseLayers,0
;   useSkirt,0
;   skirtExtruder,0
;   skirtLayers,1
;   skirtOutlines,2
;   skirtOffset,4
;   usePrimePillar,0
;   primePillarExtruder,999
;   primePillarWidth,12
;   primePillarLocation,7
;   primePillarSpeedMultiplier,1
;   useOozeShield,0
;   oozeShieldExtruder,999
;   oozeShieldOffset,2
;   oozeShieldOutlines,1
;   oozeShieldSidewallShape,1
;   oozeShieldSidewallAngle,30
;   oozeShieldSpeedMultiplier,1
;   infillExtruder,0
;   internalInfillPattern,Rectilinear
;   externalInfillPattern,Rectilinear
;   infillPercentage,20
;   outlineOverlapPercentage,15
;   infillExtrusionWidthPercentage,100
;   minInfillLength,5
;   infillLayerInterval,1
;   infillAngles,45,-45
;   overlapInfillAngles,1
;   generateSupport,0
;   supportExtruder,0
;   supportInfillPercentage,25
;   supportExtraInflation,0
;   denseSupportLayers,0
;   denseSupportInfillPercentage,70
;   supportLayerInterval,1
;   supportHorizontalPartOffset,0.3
;   supportUpperSeparationLayers,1
;   supportLowerSeparationLayers,1
;   supportType,0
;   supportGridSpacing,4
;   maxOverhangAngle,45
;   supportAngles,0
;   temperatureName,Primary Extruder,Heated Bed
;   temperatureNumber,0,1
;   temperatureSetpointCount,1,1
;   temperatureSetpointLayers,1,1
;   temperatureSetpointTemperatures,190,0
;   temperatureStabilizeAtStartup,1,1
;   temperatureHeatedBed,0,1
;   temperatureRelayBetweenLayers,0,0
;   temperatureRelayBetweenLoops,0,0
;   fanLayers,1,2
;   fanSpeeds,0,100
;   blipFanToFullPower,0
;   adjustSpeedForCooling,1
;   minSpeedLayerTime,15
;   minCoolingSpeedSlowdown,20
;   increaseFanForCooling,0
;   minFanLayerTime,45
;   maxCoolingFanSpeed,100
;   increaseFanForBridging,0
;   bridgingFanSpeed,100
;   use5D,1
;   relativeEdistances,0
;   allowEaxisZeroing,1
;   independentExtruderAxes,0
;   includeM10123,0
;   stickySupport,1
;   applyToolheadOffsets,0
;   gcodeXoffset,0
;   gcodeYoffset,0
;   gcodeZoffset,0
;   overrideMachineDefinition,1
;   machineTypeOverride,0
;   strokeXoverride,125
;   strokeYoverride,125
;   strokeZoverride,150
;   originOffsetXoverride,0
;   originOffsetYoverride,0
;   originOffsetZoverride,0
;   homeXdirOverride,-1
;   homeYdirOverride,-1
;   homeZdirOverride,-1
;   flipXoverride,1
;   flipYoverride,-1
;   flipZoverride,1
;   toolheadOffsets,0,0|0,0|0,0|0,0|0,0|0,0
;   overrideFirmwareConfiguration,1
;   firmwareTypeOverride,RepRap (Marlin/Repetier/Sprinter)
;   GPXconfigOverride,r2
;   baudRateOverride,250000
;   overridePrinterModels,1
;   printerModelsOverride,Robo3D_R1.stl
;   startingGcode,
;   layerChangeGcode,
;   retractionGcode,
;   toolChangeGcode,
;   endingGcode,
;   exportFileFormat,gcode
;   celebration,0
;   celebrationSong,Random Song
;   postProcessing,
;   defaultSpeed,3600
;   outlineUnderspeed,0.8
;   solidInfillUnderspeed,0.8
;   supportUnderspeed,0.8
;   rapidXYspeed,3600
;   rapidZspeed,3600
;   minBridgingArea,50
;   bridgingExtraInflation,0
;   bridgingExtrusionMultiplier,1
;   bridgingSpeedMultiplier,1
;   filamentDiameter,1.75
;   filamentPricePerKg,46
;   filamentDensity,1.25
;   useMinPrintHeight,0
;   minPrintHeight,0
;   useMaxPrintHeight,0
;   maxPrintHeight,0
;   useDiaphragm,0
;   diaphragmLayerInterval,20
;   robustSlicing,1
;   mergeAllIntoSolid,0
;   onlyRetractWhenCrossingOutline,0
;   retractBetweenLayers,1
;   useRetractionMinTravel,1
;   retractionMinTravel,5
;   retractWhileWiping,0
;   onlyWipeOutlines,1
;   avoidCrossingOutline,1
;   maxMovementDetourFactor,5
;   toolChangeRetractionDistance,12
;   toolChangeExtraRestartDistance,-0.5
;   toolChangeRetractionSpeed,600
;   allowThinWallGapFill,0
;   thinWallAllowedOverlapPercentage,10
;   horizontalSizeCompensation,0

; layer 1, Z = 0.3
T0
; tool H0.450 W0.600
; inner perimeter
; inner perimeter
; outer perimeter
G1 X32.957 Y103.791 F3600
G1 Z0.30 F3600
G1 E0.0000 F540
G92 E0
G1 X30.715 Y102.317 E0.3012 F1440
G1 X28.552 Y100.725 E0.6026
G1 X26.472 Y99.021 E0.9044
G1 X24.483 Y97.209 E1.2066
G1 X22.589 Y95.292 E1.5090
G1 X20.796 Y93.277 E1.8118
G1 X19.109 Y91.169 E2.1149
G1 X17.534 Y88.973 E2.4182
G1 X16.073 Y86.695 E2.7220
G1 X14.733 Y84.341 E3.0260
G1 X13.517 Y81.917 E3.3304
G1 X12.428 Y79.431 E3.6351
G1 X11.469 Y76.888 E3.9401
G1 X10.644 Y74.296 E4.2455
G1 X9.956 Y71.662 E4.5512
G1 X9.405 Y68.992 E4.8572
G1 X8.995 Y66.294 E5.1635
G1 X8.726 Y63.576 E5.4701
G1 X8.600 Y60.844 E5.7771
G1 X8.617 Y58.107 E6.0844
G1 X8.778 Y55.371 E6.3920
G1 X9.081 Y52.645 E6.6999
G1 X9.528 Y49.935 E7.0082
G1 X10.116 Y47.250 E7.3168
G1 X10.845 Y44.596 E7.6257
G1 X11.713 Y41.982 E7.9349
G1 X12.718 Y39.414 E8.2445
G1 X13.857 Y36.899 E8.5543
G1 X15.127 Y34.445 E8.8645
G1 X16.525 Y32.058 E9.1751
G1 X18.048 Y29.746 E9.4859
G1 X19.692 Y27.514 E9.7971
G1 X21.453 Y25.368 E10.1086
G1 X23.325 Y23.316 E10.4204
G1 X25.303 Y21.363 E10.7325
G1 X27.384 Y19.514 E11.0450
G1 X29.561 Y17.774 E11.3578
G1 X31.828 Y16.150 E11.6708
G1 X34.180 Y14.645 E11.9843
G1 X36.610 Y13.263 E12.2980
G1 X39.111 Y12.010 E12.6121
G1 X41.677 Y10.887 E12.9265
G1 X44.302 Y9.900 E13.2412
G1 X46.977 Y9.051 E13.5563
G1 X49.695 Y8.342 E13.8716
G1 X52.450 Y7.776 E14.1873
G1 X55.233 Y7.354 E14.5034
G1 X58.038 Y7.079 E14.8197
G1 X60.856 Y6.950 E15.1364
G1 X63.680 Y6.969 E15.4533
G1 X66.501 Y7.136 E15.7706
G1 X69.313 Y7.452 E16.0882
G1 X72.108 Y7.914 E16.4062
G1 X74.877 Y8.523 E16.7245
G1 X77.613 Y9.276 E17.0431
G1 X80.309 Y10.173 E17.3620
G1 X82.957 Y11.210 E17.6813
G1 X85.550 Y12.386 E18.0008
G1 X88.080 Y13.698 E18.3207
G1 X90.540 Y15.141 E18.6409
G1 X92.924 Y16.713 E18.9615
G1 X95.225 Y18.410 E19.2823
G1 X97.436 Y20.226 E19.6035
G1 X99.550 Y22.158 E19.9250
G1 X101.563 Y24.199 E20.2469
G1 X103.468 Y26.346 E20.5690
G1 X105.260 Y28.591 E20.8915
G1 X106.934 Y30.930 E21.2143
G1 X108.484 Y33.355 E21.5374
G1 X109.907 Y35.861 E21.8609
G1 X111.198 Y38.440 E22.1847
G1 X112.353 Y41.086 E22.5087
G1 X113.369 Y43.792 E22.8332
G1 X114.243 Y46.549 E23.1579
G1 X114.972 Y49.352 E23.4830
G1 X115.554 Y52.192 E23.8083
G1 X115.987 Y55.060 E24.1340
G1 X116.269 Y57.951 E24.4601
G1 X116.400 Y60.856 E24.7865
G1 X116.378 Y63.766 E25.1131
G1 X116.204 Y66.673 E25.4401
G1 X115.878 Y69.571 E25.7675
G1 X115.400 Y72.451 E26.0951
G1 X114.771 Y75.304 E26.4231
G1 X113.993 Y78.123 E26.7514
G1 X113.068 Y80.900 E27.0800
G1 X111.997 Y83.628 E27.4089
G1 X110.784 Y86.299 E27.7382
G1 X109.431 Y88.905 E28.0678
G1 X107.942 Y91.439 E28.3977
G1 X106.321 Y93.894 E28.7279
G1 X104.573 Y96.263 E29.0585
G1 X102.700 Y98.540 E29.3894
G1 X100.709 Y100.717 E29.7206
G1 X98.605 Y102.789 E30.0521
G1 X96.393 Y104.750 E30.3839
G1 X94.079 Y106.595 E30.7161
G1 X91.669 Y108.318 E31.0486
G1 X89.170 Y109.913 E31.3814
G1 X86.589 Y111.377 E31.7146
G1 X83.931 Y112.705 E32.0480
G1 X81.205 Y113.893 E32.3818
G1 X78.419 Y114.938 E32.7159
G1 X75.578 Y115.837 E33.0504
G1 X72.691 Y116.586 E33.3851
G1 X69.767 Y117.184 E33.7202
G1 X66.812 Y117.628 E34.0556
G1 X63.835 Y117.917 E34.3913
G1 X61.148 Y118.036 E34.6933
G1 X61.142 Y117.037 E34.8055
G1 X63.787 Y116.918 E35.1027
G1 X66.712 Y116.633 E35.4325
G1 X69.614 Y116.195 E35.7621
G1 X72.488 Y115.607 E36.0913
G1 X75.323 Y114.870 E36.4202
G1 X78.114 Y113.986 E36.7488
G1 X80.851 Y112.958 E37.0770
G1 X83.528 Y111.790 E37.4049
G1 X86.138 Y110.484 E37.7325
G1 X88.674 Y109.045 E38.0597
G1 X91.128 Y107.477 E38.3867
G1 X93.495 Y105.783 E38.7133
G1 X95.767 Y103.971 E39.0396
G1 X97.939 Y102.043 E39.3656
G1 X100.005 Y100.007 E39.6913
G1 X101.960 Y97.867 E40.0166
G1 X103.798 Y95.630 E40.3416
G1 X105.515 Y93.303 E40.6663
G1 X107.106 Y90.891 E40.9906
G1 X108.567 Y88.401 E41.3147
G1 X109.895 Y85.841 E41.6384
G1 X111.085 Y83.217 E41.9618
G1 X112.136 Y80.538 E42.2848
G1 X113.044 Y77.810 E42.6076
G1 X113.806 Y75.041 E42.9300
G1 X114.423 Y72.238 E43.2521
G1 X114.891 Y69.411 E43.5739
G1 X115.210 Y66.565 E43.8953
G1 X115.380 Y63.709 E44.2165
G1 X115.400 Y60.851 E44.5373
G1 X115.270 Y57.999 E44.8577
G1 X114.992 Y55.161 E45.1779
G1 X114.566 Y52.343 E45.4977
G1 X113.993 Y49.555 E45.8172
G1 X113.276 Y46.804 E46.1364
G1 X112.416 Y44.096 E46.4553
G1 X111.418 Y41.440 E46.7738
G1 X110.282 Y38.842 E47.0921
G1 X109.014 Y36.311 E47.4099
G1 X107.616 Y33.851 E47.7275
G1 X106.093 Y31.470 E48.0448
G1 X104.449 Y29.175 E48.3617
G1 X102.688 Y26.971 E48.6783
G1 X100.817 Y24.865 E48.9946
G1 X98.840 Y22.861 E49.3106
G1 X96.763 Y20.966 E49.6262
G1 X94.592 Y19.184 E49.9415
G1 X92.333 Y17.520 E50.2565
G1 X89.992 Y15.977 E50.5712
G1 X87.576 Y14.562 E50.8855
G1 X85.092 Y13.275 E51.1995
G1 X82.546 Y12.122 E51.5132
G1 X79.947 Y11.105 E51.8266
G1 X77.300 Y10.226 E52.1396
G1 X74.614 Y9.487 E52.4524
G1 X71.895 Y8.891 E52.7648
G1 X69.152 Y8.439 E53.0768
G1 X66.392 Y8.131 E53.3886
G1 X63.622 Y7.968 E53.7000
G1 X60.851 Y7.950 E54.0111
G1 X58.085 Y8.077 E54.3219
G1 X55.333 Y8.349 E54.6324
G1 X52.601 Y8.764 E54.9425
G1 X49.898 Y9.321 E55.2523
G1 X47.231 Y10.018 E55.5618
G1 X44.606 Y10.853 E55.8710
G1 X42.031 Y11.823 E56.1798
G1 X39.514 Y12.925 E56.4884
G1 X37.060 Y14.156 E56.7966
G1 X34.676 Y15.513 E57.1045
G1 X32.369 Y16.991 E57.4120
G1 X30.145 Y18.587 E57.7192
G1 X28.010 Y20.294 E58.0262
G1 X25.969 Y22.109 E58.3327
G1 X24.028 Y24.027 E58.6390
G1 X22.192 Y26.041 E58.9449
G1 X20.466 Y28.147 E59.2506
G1 X18.854 Y30.337 E59.5558
G1 X17.361 Y32.607 E59.8608
G1 X15.990 Y34.949 E60.1655
G1 X14.745 Y37.357 E60.4698
G1 X13.629 Y39.825 E60.7738
G1 X12.645 Y42.345 E61.0775
G1 X11.795 Y44.910 E61.3808
G1 X11.081 Y47.514 E61.6839
G1 X10.505 Y50.148 E61.9865
G1 X10.068 Y52.806 E62.2889
G1 X9.771 Y55.481 E62.5910
G1 X9.615 Y58.164 E62.8927
G1 X9.600 Y60.849 E63.1942
G1 X9.725 Y63.529 E63.4953
G1 X9.990 Y66.195 E63.7960
G1 X10.394 Y68.841 E64.0965
G1 X10.935 Y71.459 E64.3966
G1 X11.612 Y74.043 E64.6964
G1 X12.422 Y76.585 E64.9959
G1 X13.363 Y79.078 E65.2950
G1 X14.433 Y81.516 E65.5939
G1 X15.627 Y83.892 E65.8924
G1 X16.942 Y86.199 E66.1905
G1 X18.375 Y88.433 E66.4884
G1 X19.921 Y90.585 E66.7859
G1 X21.576 Y92.652 E67.0831
G1 X23.335 Y94.627 E67.3800
G1 X25.194 Y96.505 E67.6766
G1 X27.145 Y98.282 E67.9728
G1 X29.185 Y99.952 E68.2688
G1 X31.308 Y101.511 E68.5644
G1 X33.506 Y102.955 E68.8596
G1 X35.775 Y104.281 E69.1546
G1 X38.107 Y105.484 E69.4492
G1 X40.497 Y106.564 E69.7436
G1 X42.936 Y107.515 E70.0375
G1 X45.420 Y108.336 E70.3312
G1 X47.941 Y109.025 E70.6245
G1 X50.491 Y109.581 E70.9175
G1 X53.064 Y110.002 E71.2102
G1 X55.653 Y110.288 E71.5026
G1 X58.251 Y110.437 E71.7946
G1 X60.849 Y110.450 E72.0863
G1 X63.442 Y110.327 E72.3777
G1 X66.022 Y110.069 E72.6688
G1 X68.583 Y109.676 E72.9596
G1 X71.116 Y109.151 E73.2500
G1 X73.616 Y108.494 E73.5401
G1 X76.075 Y107.709 E73.8299
G1 X78.486 Y106.796 E74.1193
G1 X80.845 Y105.760 E74.4085
G1 X83.143 Y104.603 E74.6973
G1 X85.375 Y103.329 E74.9858
G1 X87.534 Y101.941 E75.2740
G1 X89.616 Y100.444 E75.5618
G1 X91.614 Y98.841 E75.8493
G1 X93.523 Y97.138 E76.1365
G1 X95.339 Y95.339 E76.4234
G1 X97.056 Y93.450 E76.7099
G1 X98.670 Y91.476 E76.9962
G1 X100.176 Y89.423 E77.2821
G1 X101.571 Y87.295 E77.5676
G1 X102.852 Y85.100 E77.8529
G1 X104.015 Y82.844 E78.1378
G1 X105.056 Y80.532 E78.4225
G1 X105.974 Y78.172 E78.7067
G1 X106.767 Y75.770 E78.9907
G1 X107.432 Y73.332 E79.2743
G1 X107.967 Y70.866 E79.5576
G1 X108.373 Y68.377 E79.8407
G1 X108.647 Y65.874 E80.1233
G1 X108.789 Y63.363 E80.4057
G1 X108.800 Y60.850 E80.6877
G1 X108.679 Y58.344 E80.9694
G1 X108.428 Y55.850 E81.2508
G1 X108.047 Y53.375 E81.5318
G1 X107.537 Y50.927 E81.8126
G1 X106.901 Y48.511 E82.0930
G1 X106.139 Y46.135 E82.3731
G1 X105.256 Y43.804 E82.6529
G1 X104.253 Y41.526 E82.9323
G1 X103.133 Y39.306 E83.2114
G1 X101.900 Y37.150 E83.4902
G1 X100.557 Y35.064 E83.7687
G1 X99.109 Y33.054 E84.0468
G1 X97.559 Y31.124 E84.3246
G1 X95.912 Y29.281 E84.6021
G1 X94.173 Y27.528 E84.8793
G1 X92.346 Y25.870 E85.1562
G1 X90.438 Y24.313 E85.4327
G1 X88.452 Y22.859 E85.7089
G1 X86.397 Y21.512 E85.9848
G1 X84.275 Y20.277 E86.2604
G1 X82.095 Y19.156 E86.5356
G1 X79.861 Y18.151 E86.8105
G1 X77.581 Y17.266 E87.0851
G1 X75.260 Y16.502 E87.3594
G1 X72.905 Y15.862 E87.6333
G1 X70.522 Y15.347 E87.9070
G1 X68.119 Y14.957 E88.1803
G1 X65.701 Y14.694 E88.4532
G1 X63.276 Y14.559 E88.7259
G1 X60.850 Y14.550 E88.9982
G1 X58.430 Y14.668 E89.2702
G1 X56.022 Y14.913 E89.5419
G1 X53.633 Y15.283 E89.8133
G1 X51.269 Y15.777 E90.0843
G1 X48.938 Y16.393 E90.3550
G1 X46.644 Y17.130 E90.6254
G1 X44.396 Y17.985 E90.8955
G1 X42.197 Y18.955 E91.1652
G1 X40.055 Y20.037 E91.4346
G1 X37.975 Y21.229 E91.7038
G1 X35.963 Y22.527 E91.9726
G1 X34.024 Y23.926 E92.2410
G1 X32.163 Y25.424 E92.5091
G1 X30.384 Y27.015 E92.7769
G1 X28.694 Y28.694 E93.0444
G1 X27.096 Y30.458 E93.3116
G1 X25.595 Y32.301 E93.5784
G1 X24.193 Y34.217 E93.8449
G1 X22.896 Y36.202 E94.1111
G1 X21.706 Y38.250 E94.3770
G1 X20.626 Y40.355 E94.6425
G1 X19.658 Y42.510 E94.9078
G1 X18.806 Y44.711 E95.1726
G1 X18.072 Y46.950 E95.4372
G1 X17.456 Y49.223 E95.7015
G1 X16.961 Y51.521 E95.9654
G1 X16.587 Y53.840 E96.2290
G1 X16.335 Y56.171 E96.4923
G1 X16.206 Y58.510 E96.7553
G1 X16.200 Y60.850 E97.0179
G1 X16.316 Y63.184 E97.2802
G1 X16.554 Y65.506 E97.5422
G1 X16.913 Y67.809 E97.8039
G1 X17.391 Y70.088 E98.0652
G1 X17.987 Y72.335 E98.3263
G1 X18.699 Y74.546 E98.5869
G1 X19.525 Y76.713 E98.8473
G1 X20.462 Y78.832 E99.1074
G1 X21.508 Y80.896 E99.3671
G1 X22.658 Y82.900 E99.6265
G1 X23.911 Y84.839 E99.8856
G1 X25.262 Y86.707 E100.1444
G1 X26.706 Y88.499 E100.4028
G1 X28.241 Y90.212 E100.6609
G1 X29.861 Y91.839 E100.9187
G1 X31.562 Y93.378 E101.1762
G1 X33.339 Y94.823 E101.4333
G1 X35.187 Y96.172 E101.6901
G1 X37.101 Y97.420 E101.9466
G1 X39.075 Y98.566 E102.2028
G1 X41.104 Y99.604 E102.4587
G1 X43.182 Y100.535 E102.7142
G1 X45.303 Y101.353 E102.9694
G1 X47.461 Y102.059 E103.2243
G1 X49.650 Y102.651 E103.4789
G1 X51.864 Y103.126 E103.7331
G1 X54.098 Y103.484 E103.9870
G1 X56.344 Y103.724 E104.2406
G1 X58.597 Y103.846 E104.4938
G1 X60.850 Y103.850 E104.7468
G1 X63.098 Y103.736 E104.9994
G1 X65.334 Y103.505 E105.2517
G1 X67.551 Y103.157 E105.5037
G1 X69.745 Y102.695 E105.7553
G1 X71.908 Y102.119 E106.0066
G1 X74.036 Y101.431 E106.2576
G1 X76.122 Y100.634 E106.5083
G1 X78.161 Y99.730 E106.7587
G1 X80.147 Y98.722 E107.0087
G1 X82.075 Y97.612 E107.2584
G1 X83.940 Y96.405 E107.5078
G1 X85.737 Y95.104 E107.7569
G1 X87.461 Y93.711 E108.0057
G1 X89.108 Y92.233 E108.2541
G1 X90.673 Y90.672 E108.5022
G1 X92.152 Y89.033 E108.7499
G1 X93.541 Y87.322 E108.9974
G1 X94.837 Y85.542 E109.2445
G1 X96.037 Y83.700 E109.4913
G1 X97.137 Y81.799 E109.7378
G1 X98.134 Y79.847 E109.9840
G1 X99.027 Y77.847 E110.2298
G1 X99.813 Y75.806 E110.4753
G1 X100.490 Y73.729 E110.7205
G1 X101.057 Y71.623 E110.9654
G1 X101.512 Y69.492 E111.2099
G1 X101.854 Y67.344 E111.4541
G1 X102.083 Y65.183 E111.6980
G1 X102.198 Y63.017 E111.9416
G1 X102.200 Y60.849 E112.1848
G1 X102.088 Y58.688 E112.4278
G1 X101.864 Y56.539 E112.6704
G1 X101.528 Y54.406 E112.9127
