;FLAVOR:RepRap
;TIME:1285
;Generated with Cura_SteamEngine 2.3.1
M104 S190
M109 S190
; -- START GCODE --
;-- end of START GCODE --
;LAYER_COUNT:25
;LAYER:0
M107
M205 X30
G1 F1500 E-1
G0 F1066.7 X44.315 Y36.336 Z.299
M205 X12
;TYPE:SKIRT
G1 F1500 E0
G1 F1200 X44.73 Y35.915 E0.02939
G1 X45.153 Y35.558 E0.05692
G1 X45.896 Y35.041 E0.10193
G1 X46.439 Y34.741 E0.13277
G1 X47.131 Y34.448 E0.17014
G1 X47.781 Y34.256 E0.20384
G1 X49.703 Y33.918 E0.30088
G1 X49.914 Y33.889 E0.31147
G1 X56.271 Y33.231 E0.62925
G1 X56.456 Y33.218 E0.63847
G1 X60.939 Y33.032 E0.86158
G1 X61.088 Y33.029 E0.86899
G1 X65.51 Y33.066 E1.08887
G1 X65.664 Y33.071 E1.09653
G1 X70.291 Y33.347 E1.32702
G1 X70.445 Y33.36 E1.3347
G1 X74.964 Y33.864 E1.5608
G1 X75.134 Y33.888 E1.56933
G1 X77.088 Y34.22 E1.66789
G1 X77.602 Y34.356 E1.69432
G1 X78.132 Y34.547 E1.72234
G1 X78.596 Y34.76 E1.74772
G1 X79.29 Y35.154 E1.7874
G1 X79.856 Y35.57 E1.82233
G1 X80.64 Y36.302 E1.87567
G1 X81.066 Y36.797 E1.90814
G1 X81.421 Y37.314 E1.93932
G1 X81.67 Y37.75 E1.96429
G1 X81.981 Y38.421 E2.00106
G1 X82.168 Y38.951 E2.02901
G1 X82.349 Y39.67 E2.06588
G1 X82.439 Y40.308 E2.09792
G1 X82.47 Y41.302 E2.14736
G1 X82.466 Y41.563 E2.16034
G1 X82.082 Y48.454 E2.50352
G1 X82.116 Y53.936 E2.77611
G1 X82.482 Y60.026 E3.07948
G1 X82.483 Y60.358 E3.09599
G1 X82.156 Y66.79 E3.41623
G1 X82.2 Y72.299 E3.69016
G1 X82.469 Y77.502 E3.94922
G1 X82.454 Y77.992 E3.9736
G1 X82.401 Y78.312 E3.98973
G1 X82.168 Y79.354 E4.04282
G1 X81.935 Y80.016 E4.07772
G1 X81.591 Y80.72 E4.11668
G1 X81.207 Y81.315 E4.15189
G1 X80.493 Y82.178 E4.20758
G1 X80.152 Y82.529 E4.23192
G1 X79.946 Y82.693 E4.24501
G1 X79.261 Y83.191 E4.28712
G1 X78.774 Y83.479 E4.31525
G1 X73.358 Y86.027 E4.61287
G1 X68.171 Y88.836 E4.90618
G1 X66.751 Y89.618 E4.98679
G1 X66.305 Y89.818 E5.01109
G1 X65.831 Y89.943 E5.03547
G1 X65.299 Y89.99 E5.06202
G1 X59.643 Y89.98 E5.34326
G1 X59.155 Y89.939 E5.36761
G1 X58.68 Y89.82 E5.39196
G1 X58.204 Y89.61 E5.41783
G1 X52.11 Y86.263 E5.76354
G1 X46.128 Y83.423 E6.09281
G1 X45.579 Y83.086 E6.12484
G1 X44.899 Y82.56 E6.16759
G1 X44.426 Y82.103 E6.20029
G1 X43.866 Y81.428 E6.24391
G1 X43.547 Y80.96 E6.27207
G1 X43.233 Y80.39 E6.30443
G1 X43.022 Y79.913 E6.33036
G1 X42.786 Y79.223 E6.36662
G1 X42.658 Y78.695 E6.39364
G1 X42.551 Y77.979 E6.42963
G1 X42.523 Y77.364 E6.46025
G1 X42.751 Y73.391 E6.65812
G1 X42.86 Y67.869 E6.93275
G1 X42.798 Y65.15 E7.06799
G1 X42.531 Y59.941 E7.32734
G1 X42.532 Y59.617 E7.34345
G1 X42.917 Y52.835 E7.68122
G1 X42.888 Y47.346 E7.95416
G1 X42.525 Y41.438 E8.24848
G1 X42.521 Y41.143 E8.26315
G1 X42.55 Y40.36 E8.30211
G1 X42.625 Y39.797 E8.33035
G1 X42.784 Y39.107 E8.36556
G1 X42.951 Y38.595 E8.39234
G1 X43.242 Y37.919 E8.42894
G1 X43.521 Y37.413 E8.45767
G1 X43.974 Y36.75 E8.4976
G1 X44.315 Y36.336 E8.52427
M205 X30
G0 F1066.7 X44.599 Y36.617
M205 X12
G1 F1200 X45.014 Y36.196 E8.55366
G1 X45.381 Y35.887 E8.57752
G1 X46.124 Y35.37 E8.62252
G1 X46.595 Y35.11 E8.64928
G1 X47.287 Y34.817 E8.68664
G1 X47.851 Y34.65 E8.71589
G1 X49.773 Y34.312 E8.81293
G1 X49.955 Y34.287 E8.82206
G1 X56.312 Y33.629 E9.13984
G1 X56.472 Y33.617 E9.14782
G1 X60.955 Y33.431 E9.37093
G1 X61.085 Y33.429 E9.37739
G1 X65.507 Y33.466 E9.59728
G1 X65.64 Y33.471 E9.6039
G1 X70.267 Y33.747 E9.83438
G1 X70.4 Y33.758 E9.84101
G1 X74.919 Y34.262 E10.06711
G1 X75.067 Y34.283 E10.07454
G1 X77.021 Y34.615 E10.17309
G1 X77.466 Y34.732 E10.19597
G1 X77.996 Y34.923 E10.22399
G1 X78.399 Y35.108 E10.24604
G1 X79.093 Y35.502 E10.28572
G1 X79.583 Y35.863 E10.31598
G1 X80.367 Y36.595 E10.36931
G1 X80.736 Y37.023 E10.39741
G1 X81.091 Y37.54 E10.4286
G1 X81.307 Y37.919 E10.45029
G1 X81.618 Y38.59 E10.48706
G1 X81.78 Y39.048 E10.51122
G1 X81.961 Y39.767 E10.54809
G1 X82.039 Y40.321 E10.57591
G1 X82.07 Y41.315 E10.62536
G1 X82.067 Y41.541 E10.63659
G1 X81.682 Y48.45 E10.98067
G1 X81.717 Y53.963 E11.2548
G1 X82.082 Y60.05 E11.55802
G1 X82.084 Y60.338 E11.57234
G1 X81.756 Y66.79 E11.89357
G1 X81.8 Y72.3 E12.16756
G1 X82.07 Y77.523 E12.42761
G1 X82.053 Y77.978 E12.45025
G1 X82.01 Y78.224 E12.46267
G1 X81.777 Y79.266 E12.51576
G1 X81.576 Y79.84 E12.546
G1 X81.232 Y80.544 E12.58496
G1 X80.899 Y81.06 E12.6155
G1 X80.185 Y81.923 E12.67119
G1 X79.711 Y82.369 E12.70356
G1 X79.026 Y82.867 E12.74567
G1 X78.604 Y83.117 E12.77006
G1 X73.176 Y85.671 E13.06834
G1 X67.962 Y88.494 E13.36316
G1 X66.558 Y89.267 E13.44286
G1 X66.141 Y89.451 E13.46552
G1 X65.699 Y89.56 E13.48816
G1 X65.299 Y89.59 E13.5081
G1 X59.643 Y89.58 E13.78934
G1 X59.19 Y89.539 E13.81196
G1 X58.75 Y89.42 E13.83462
G1 X58.396 Y89.259 E13.85396
G1 X52.296 Y85.909 E14.20001
G1 X46.3 Y83.062 E14.53005
G1 X45.824 Y82.77 E14.55782
G1 X45.144 Y82.244 E14.60057
G1 X44.734 Y81.847 E14.62895
G1 X44.174 Y81.172 E14.67256
G1 X43.898 Y80.767 E14.69693
G1 X43.584 Y80.197 E14.72928
G1 X43.401 Y79.783 E14.75179
G1 X43.165 Y79.093 E14.78805
G1 X43.054 Y78.636 E14.81144
G1 X42.947 Y77.92 E14.84743
G1 X42.922 Y77.387 E14.87397
G1 X43.151 Y73.395 E15.07279
G1 X43.26 Y67.86 E15.34807
G1 X43.199 Y65.166 E15.48206
G1 X42.93 Y59.92 E15.74325
G1 X42.931 Y59.64 E15.75717
G1 X43.317 Y52.84 E16.09584
G1 X43.288 Y47.338 E16.36943
G1 X42.924 Y41.414 E16.66455
G1 X42.921 Y41.158 E16.67728
G1 X42.95 Y40.375 E16.71624
G1 X43.014 Y39.887 E16.74071
G1 X43.173 Y39.197 E16.77592
G1 X43.319 Y38.753 E16.79916
G1 X43.61 Y38.077 E16.83575
G1 X43.851 Y37.638 E16.86066
G1 X44.304 Y36.975 E16.90058
G1 X44.599 Y36.617 E16.92365
M205 X30
G0 F1066.7 X44.884 Y36.898
M205 X12
G1 F1200 X45.299 Y36.477 E16.95304
G1 X45.609 Y36.215 E16.97323
G1 X46.352 Y35.698 E17.01823
G1 X46.751 Y35.478 E17.04089
G1 X47.443 Y35.185 E17.07826
G1 X47.92 Y35.044 E17.10299
G1 X49.842 Y34.706 E17.20003
G1 X49.996 Y34.685 E17.20775
G1 X56.353 Y34.027 E17.52554
G1 X56.489 Y34.017 E17.53232
G1 X60.972 Y33.831 E17.75542
G1 X61.081 Y33.829 E17.76084
G1 X65.503 Y33.866 E17.98073
G1 X65.616 Y33.87 E17.98635
G1 X70.243 Y34.146 E18.21683
G1 X70.356 Y34.156 E18.22247
G1 X74.875 Y34.66 E18.44857
G1 X75 Y34.677 E18.45484
G1 X76.954 Y35.009 E18.5534
G1 X77.331 Y35.108 E18.57278
G1 X77.861 Y35.299 E18.60079
G1 X78.201 Y35.456 E18.61941
G1 X78.895 Y35.85 E18.65909
G1 X79.31 Y36.155 E18.6847
G1 X80.094 Y36.887 E18.73804
G1 X80.407 Y37.25 E18.76187
G1 X80.762 Y37.767 E18.79305
G1 X80.944 Y38.087 E18.81136
G1 X81.255 Y38.758 E18.84813
G1 X81.392 Y39.146 E18.86859
G1 X81.573 Y39.865 E18.90546
G1 X81.639 Y40.333 E18.92896
G1 X81.67 Y41.327 E18.97841
G1 X81.668 Y41.519 E18.98796
G1 X81.281 Y48.447 E19.33298
G1 X81.317 Y53.971 E19.60766
G1 X81.683 Y60.074 E19.91167
G1 X81.684 Y60.318 E19.92381
G1 X81.355 Y66.773 E20.24519
G1 X81.401 Y72.324 E20.52122
G1 X81.67 Y77.544 E20.78112
G1 X81.62 Y78.137 E20.81071
G1 X81.387 Y79.179 E20.8638
G1 X81.217 Y79.665 E20.8894
G1 X80.873 Y80.369 E20.92837
G1 X80.591 Y80.805 E20.95418
G1 X79.877 Y81.668 E21.00988
G1 X79.476 Y82.045 E21.03725
G1 X78.791 Y82.543 E21.07936
G1 X78.434 Y82.755 E21.1
G1 X73.001 Y85.311 E21.39856
G1 X67.771 Y88.143 E21.69429
G1 X66.365 Y88.917 E21.7741
G1 X65.981 Y89.083 E21.7949
G1 X65.571 Y89.174 E21.81578
G1 X65.3 Y89.19 E21.82928
G1 X59.644 Y89.18 E22.11052
G1 X59.227 Y89.139 E22.13135
G1 X58.825 Y89.02 E22.1522
G1 X58.589 Y88.908 E22.16519
G1 X52.481 Y85.553 E22.5117
G1 X46.471 Y82.7 E22.84251
G1 X46.069 Y82.453 E22.86597
G1 X45.389 Y81.927 E22.90871
G1 X45.042 Y81.592 E22.9327
G1 X44.482 Y80.917 E22.97631
G1 X44.248 Y80.574 E22.99695
G1 X43.934 Y80.004 E23.02931
G1 X43.779 Y79.654 E23.04835
G1 X43.543 Y78.964 E23.08461
G1 X43.449 Y78.577 E23.10441
G1 X43.342 Y77.861 E23.14041
G1 X43.322 Y77.41 E23.16285
G1 X43.549 Y73.453 E23.35994
G1 X43.659 Y67.843 E23.63894
G1 X43.598 Y65.126 E23.77407
G1 X43.33 Y59.9 E24.03427
G1 X43.331 Y59.662 E24.04611
G1 X43.717 Y52.86 E24.38487
G1 X43.688 Y47.328 E24.65995
G1 X43.323 Y41.389 E24.95582
G1 X43.321 Y41.173 E24.96656
G1 X43.35 Y40.39 E25.00552
G1 X43.404 Y39.977 E25.02623
G1 X43.563 Y39.287 E25.06144
G1 X43.686 Y38.911 E25.08111
G1 X43.977 Y38.235 E25.1177
G1 X44.182 Y37.864 E25.13878
G1 X44.635 Y37.201 E25.17871
G1 X44.884 Y36.898 E25.19821
M205 X30
G1 F1500 E24.19821
G0 F1066.7 X44.838 Y60.293
G0 X45.007 Y61.404
G0 X45.436 Y62.44
G0 X49.968 Y72.531
G0 X50.155 Y73.825
G0 X50.651 Y73.815
G0 X50.58 Y73.316
M205 X12
;TYPE:WALL-OUTER
G1 F1500 E25.19821
G1 F1200 X50.669 Y73.309 E25.20265
G1 X50.777 Y73.315 E25.20803
G1 X50.87 Y73.33 E25.21271
G1 X50.96 Y73.357 E25.21738
G1 X51.049 Y73.396 E25.22221
G1 X51.132 Y73.446 E25.22703
G1 X51.212 Y73.508 E25.23207
G1 X51.281 Y73.575 E25.23685
G1 X51.342 Y73.652 E25.24173
G1 X51.393 Y73.735 E25.24658
G1 X51.431 Y73.82 E25.25121
G1 X51.461 Y73.918 E25.2563
G1 X51.478 Y74.002 E25.26056
G1 X51.485 Y74.12 E25.26644
G1 X51.478 Y74.41 E25.28087
G1 X51.461 Y74.503 E25.28557
G1 X51.431 Y74.599 E25.29057
G1 X51.393 Y74.684 E25.2952
G1 X51.347 Y74.761 E25.29966
G1 X51.283 Y74.842 E25.30479
G1 X51.215 Y74.91 E25.30957
G1 X51.136 Y74.972 E25.31457
G1 X51.06 Y75.018 E25.31898
G1 X50.968 Y75.06 E25.32401
G1 X50.878 Y75.088 E25.3287
G1 X50.785 Y75.105 E25.3334
G1 X50.672 Y75.112 E25.33903
G1 X49.482 Y75.113 E25.3982
G1 X49.313 Y75.12 E25.40661
G1 X49.128 Y75.144 E25.41589
G1 X48.946 Y75.182 E25.42513
G1 X48.766 Y75.237 E25.43449
G1 X48.593 Y75.307 E25.44377
G1 X48.426 Y75.393 E25.45311
G1 X48.268 Y75.49 E25.46233
G1 X48.117 Y75.601 E25.47165
G1 X47.978 Y75.724 E25.48088
G1 X47.847 Y75.859 E25.49023
G1 X47.731 Y76.006 E25.49954
G1 X47.626 Y76.16 E25.50881
G1 X47.535 Y76.323 E25.51809
G1 X47.458 Y76.493 E25.52737
G1 X47.396 Y76.67 E25.5367
G1 X47.348 Y76.852 E25.54606
G1 X47.318 Y77.036 E25.55533
G1 X47.302 Y77.221 E25.56456
G1 X47.302 Y77.41 E25.57396
G1 X47.319 Y77.596 E25.58324
G1 X47.35 Y77.78 E25.59252
G1 X47.398 Y77.96 E25.60179
G1 X47.462 Y78.137 E25.61114
G1 X47.538 Y78.306 E25.62036
G1 X47.63 Y78.469 E25.62967
G1 X47.735 Y78.624 E25.63897
G1 X47.852 Y78.769 E25.64824
G1 X47.983 Y78.905 E25.65763
G1 X48.123 Y79.027 E25.66686
G1 X48.274 Y79.138 E25.67618
G1 X48.433 Y79.236 E25.68547
G1 X48.6 Y79.319 E25.69474
G1 X48.774 Y79.389 E25.70407
G1 X48.953 Y79.443 E25.71336
G1 X49.135 Y79.481 E25.72261
G1 X49.321 Y79.504 E25.73193
G1 X49.496 Y79.512 E25.74064
G1 X75.518 Y79.511 E27.03455
G1 X75.687 Y79.503 E27.04297
G1 X75.872 Y79.48 E27.05224
G1 X76.054 Y79.441 E27.06149
G1 X76.234 Y79.387 E27.07084
G1 X76.407 Y79.316 E27.08013
G1 X76.574 Y79.232 E27.08943
G1 X76.732 Y79.134 E27.09867
G1 X76.883 Y79.023 E27.10799
G1 X77.023 Y78.899 E27.11729
G1 X77.153 Y78.764 E27.12661
G1 X77.269 Y78.618 E27.13588
G1 X77.374 Y78.463 E27.14519
G1 X77.465 Y78.3 E27.15448
G1 X77.542 Y78.131 E27.16371
G1 X77.604 Y77.953 E27.17308
G1 X77.652 Y77.771 E27.18244
G1 X77.682 Y77.588 E27.19166
G1 X77.698 Y77.403 E27.2009
G1 X77.698 Y77.214 E27.21029
G1 X77.681 Y77.028 E27.21958
G1 X77.65 Y76.844 E27.22886
G1 X77.602 Y76.662 E27.23822
G1 X77.538 Y76.487 E27.24748
G1 X77.462 Y76.317 E27.25674
G1 X77.37 Y76.153 E27.26609
G1 X77.265 Y76 E27.27532
G1 X77.148 Y75.854 E27.28462
G1 X77.017 Y75.719 E27.29398
G1 X76.877 Y75.597 E27.30321
G1 X76.726 Y75.486 E27.31253
G1 X76.567 Y75.388 E27.32182
G1 X76.4 Y75.304 E27.33111
G1 X76.226 Y75.235 E27.34042
G1 X76.047 Y75.181 E27.34972
G1 X75.865 Y75.143 E27.35896
G1 X75.679 Y75.12 E27.36828
G1 X75.504 Y75.112 E27.37699
G1 X55.666 Y75.11 E28.36341
G1 X55.572 Y75.102 E28.3681
G1 X55.471 Y75.082 E28.37322
G1 X55.387 Y75.053 E28.37764
G1 X55.298 Y75.01 E28.38256
G1 X55.218 Y74.959 E28.38727
G1 X55.141 Y74.896 E28.39222
G1 X55.074 Y74.825 E28.39708
G1 X55.018 Y74.751 E28.40169
G1 X54.967 Y74.661 E28.40683
G1 X54.932 Y74.579 E28.41127
G1 X54.891 Y74.403 E28.42025
G1 X54.885 Y74.308 E28.42499
G1 X54.885 Y73.568 E28.46178
G1 X54.894 Y73.466 E28.46687
G1 X54.939 Y73.289 E28.47595
G1 X55.023 Y73.13 E28.4849
G1 X55.083 Y73.052 E28.48979
G1 X55.143 Y72.99 E28.49408
G1 X55.216 Y72.929 E28.49881
G1 X55.294 Y72.879 E28.50342
G1 X55.376 Y72.839 E28.50795
G1 X55.46 Y72.809 E28.51239
G1 X55.628 Y72.778 E28.52088
G1 X56.713 Y72.701 E28.57497
G1 X57.854 Y72.635 E28.6318
G1 X58.992 Y72.583 E28.68844
G1 X60.132 Y72.545 E28.74516
G1 X61.271 Y72.522 E28.80181
G1 X62.411 Y72.513 E28.85849
G1 X63.548 Y72.518 E28.91503
G1 X64.688 Y72.538 E28.97173
G1 X65.826 Y72.574 E29.02834
G1 X66.966 Y72.624 E29.08508
G1 X68.103 Y72.688 E29.1417
G1 X69.243 Y72.768 E29.19853
G1 X70.377 Y72.861 E29.25511
G1 X71.511 Y72.97 E29.31175
G1 X72.645 Y73.093 E29.36847
G1 X73.779 Y73.23 E29.42527
G1 X74.905 Y73.382 E29.48176
G1 X76.083 Y73.558 E29.54099
G1 X76.32 Y73.602 E29.55297
G1 X76.542 Y73.658 E29.56436
G1 X76.746 Y73.721 E29.57498
G1 X76.961 Y73.804 E29.58644
G1 X77.175 Y73.901 E29.59812
G1 X77.367 Y74.002 E29.60891
G1 X77.573 Y74.128 E29.62091
G1 X77.761 Y74.258 E29.63228
G1 X77.932 Y74.392 E29.64308
G1 X78.112 Y74.552 E29.65506
G1 X78.266 Y74.706 E29.66589
G1 X78.425 Y74.887 E29.67786
G1 X78.56 Y75.059 E29.68874
G1 X78.689 Y75.246 E29.70003
G1 X78.813 Y75.453 E29.71203
G1 X78.92 Y75.657 E29.72349
G1 X79.009 Y75.855 E29.73428
G1 X79.09 Y76.069 E29.74566
G1 X79.162 Y76.3 E29.75769
G1 X79.214 Y76.51 E29.76845
G1 X79.255 Y76.735 E29.77982
G1 X79.283 Y76.962 E29.79119
G1 X79.298 Y77.203 E29.8032
G1 X79.298 Y77.42 E29.81399
G1 X79.284 Y77.649 E29.8254
G1 X79.255 Y77.886 E29.83727
G1 X79.214 Y78.114 E29.84879
G1 X79.162 Y78.324 E29.85954
G1 X79.09 Y78.554 E29.87153
G1 X79.014 Y78.758 E29.88235
G1 X78.92 Y78.967 E29.89375
G1 X78.808 Y79.181 E29.90576
G1 X78.696 Y79.367 E29.91655
G1 X78.559 Y79.566 E29.92857
G1 X78.425 Y79.737 E29.93937
G1 X78.275 Y79.908 E29.95068
G1 X78.104 Y80.078 E29.96267
G1 X77.933 Y80.231 E29.97408
G1 X77.761 Y80.366 E29.98495
G1 X77.573 Y80.496 E29.99632
G1 X77.377 Y80.615 E30.00772
G1 X77.164 Y80.728 E30.01971
G1 X76.967 Y80.817 E30.03046
G1 X76.75 Y80.9 E30.04201
G1 X76.526 Y80.97 E30.05368
G1 X76.311 Y81.024 E30.0647
G1 X76.074 Y81.068 E30.07669
G1 X74.957 Y81.234 E30.13284
G1 X73.834 Y81.385 E30.18918
G1 X72.705 Y81.523 E30.24574
G1 X71.576 Y81.646 E30.30221
G1 X70.447 Y81.756 E30.35861
G1 X69.318 Y81.85 E30.41494
G1 X68.183 Y81.929 E30.47152
G1 X67.049 Y81.995 E30.528
G1 X65.914 Y82.047 E30.5845
G1 X65.592 Y82.061 E30.60052
G1 X65.749 Y82.343 E30.60974
G1 X65.869 Y82.557 E30.62194
G1 X65.971 Y82.766 E30.63351
G1 X66.059 Y82.98 E30.64501
G1 X66.13 Y83.187 E30.65589
G1 X66.191 Y83.412 E30.66748
G1 X66.239 Y83.64 E30.67907
G1 X66.275 Y83.881 E30.69119
G1 X66.294 Y84.098 E30.70202
G1 X66.299 Y84.331 E30.71361
G1 X66.29 Y84.57 E30.7255
G1 X66.268 Y84.794 E30.73669
G1 X66.23 Y85.035 E30.74882
G1 X66.18 Y85.259 E30.76023
G1 X66.116 Y85.48 E30.77167
G1 X66.041 Y85.691 E30.78281
G1 X65.95 Y85.904 E30.79433
G1 X65.84 Y86.122 E30.80647
G1 X65.73 Y86.312 E30.81739
G1 X65.595 Y86.515 E30.82951
G1 X65.462 Y86.692 E30.84052
G1 X65.379 Y86.764 E30.84598
G1 X65.284 Y86.801 E30.85105
G1 X65.188 Y86.804 E30.85583
G1 X65.092 Y86.775 E30.86081
G1 X65.002 Y86.709 E30.86636
G1 X64.309 Y86.016 E30.91509
G1 X64.243 Y85.924 E30.92072
G1 X64.215 Y85.831 E30.92555
G1 X64.217 Y85.746 E30.92978
G1 X64.245 Y85.659 E30.93432
G1 X64.371 Y85.466 E30.94579
G1 X64.464 Y85.302 E30.95516
G1 X64.542 Y85.128 E30.96464
G1 X64.605 Y84.949 E30.97408
G1 X64.652 Y84.765 E30.98352
G1 X64.683 Y84.577 E30.99299
G1 X64.697 Y84.389 E31.00237
G1 X64.697 Y84.199 E31.01182
G1 X64.679 Y84.009 E31.02131
G1 X64.645 Y83.821 E31.03081
G1 X64.594 Y83.637 E31.0403
G1 X64.528 Y83.459 E31.04974
G1 X64.447 Y83.287 E31.05919
G1 X64.351 Y83.122 E31.06869
G1 X64.241 Y82.968 E31.0781
G1 X64.118 Y82.823 E31.08755
G1 X63.984 Y82.688 E31.09701
