;FLAVOR:RepRap
;TIME:1634
;Filament used: 1.72955m
;Layer height: 0.2
;Generated with Cura_SteamEngine 2.5.0
M104 S200
M109 S200
; -- START GCODE --
;-- end of START GCODE --
;LAYER_COUNT:24
;LAYER:-6
M107
G0 F1800 X43.886 Y36.311 Z0.3
G1 F900 X44.043 Y36.122 E0.03065
G1 X44.193 Y35.952 E0.05892
G1 X44.426 Y35.704 E0.10136
G1 X44.595 Y35.535 E0.13117
G1 X44.747 Y35.393 E0.15712
G1 X44.938 Y35.222 E0.18909
G1 X45.149 Y35.046 E0.22336
G1 X45.361 Y34.879 E0.25702
G1 X45.591 Y34.708 E0.29277
G1 X45.737 Y34.607 E0.31491
G1 X45.975 Y34.453 E0.35027
G1 X46.178 Y34.33 E0.37987
G1 X46.444 Y34.179 E0.41802
G1 X46.614 Y34.088 E0.44207
G1 X46.877 Y33.959 E0.47861
G1 X47.121 Y33.85 E0.51194
G1 X47.373 Y33.745 E0.54599
G1 X47.373 Y33.744 E0.54612
G1 X47.578 Y33.667 E0.57343
G1 X47.852 Y33.571 E0.60964
G1 X48.065 Y33.505 E0.63745
G1 X48.065 Y33.504 E0.63758
G1 X48.323 Y33.432 E0.67099
G1 X48.531 Y33.38 E0.69773
G1 X48.846 Y33.311 E0.73795
G1 X49.045 Y33.274 E0.7632
G1 X49.242 Y33.242 E0.78809
G1 X50.916 Y32.999 E0.99907
G1 X51.223 Y32.966 E1.03758
G1 X51.33 Y32.958 E1.05096
G1 X51.914 Y32.95 E1.12381
G1 X51.991 Y32.954 E1.13342
G1 X52.606 Y33.023 E1.21061
G1 X52.662 Y33.033 E1.21771
G1 X53.718 Y33.283 E1.35306
G1 X54.256 Y32.979 E1.43013
G1 X54.322 Y32.947 E1.43928
G1 X54.788 Y32.751 E1.50233
G1 X54.852 Y32.728 E1.51082
G1 X55.343 Y32.579 E1.57481
G1 X55.407 Y32.563 E1.58304
G1 X55.901 Y32.469 E1.64576
G1 X55.996 Y32.457 E1.65771
G1 X56.306 Y32.426 E1.69656
G1 X57.382 Y32.349 E1.83111
G1 X57.462 Y32.343 E1.84112
G1 X58.586 Y32.278 E1.98154
G1 X58.637 Y32.275 E1.98791
G1 X59.742 Y32.223 E2.12589
G1 X59.742 Y32.224 E2.12601
G1 X60.98 Y32.183 E2.28051
G1 X61.036 Y32.181 E2.2875
G1 X62.177 Y32.158 E2.42984
G1 X62.238 Y32.157 E2.43745
G1 X63.378 Y32.148 E2.57964
G1 X63.427 Y32.148 E2.58575
G1 X64.561 Y32.153 E2.72719
G1 X64.627 Y32.154 E2.73542
G1 X65.774 Y32.174 E2.87851
G1 X65.845 Y32.175 E2.88736
G1 X66.967 Y32.211 E3.02738
G1 X67.036 Y32.214 E3.03599
G1 X68.176 Y32.264 E3.17831
G1 X68.249 Y32.267 E3.18743
G1 X68.249 Y32.266 E3.18755
G1 X69.369 Y32.331 E3.32748
G1 X70.588 Y32.416 E3.47989
G1 X70.614 Y32.419 E3.48315
G1 X71.79 Y32.514 E3.63031
G1 X71.827 Y32.518 E3.63495
G1 X72.799 Y32.611 E3.75674
G1 X74.144 Y32.754 E3.92544
G1 X74.209 Y32.762 E3.93361
G1 X75.347 Y32.9 E4.07658
G1 X75.399 Y32.906 E4.08311
G1 X75.399 Y32.907 E4.08324
G1 X76.54 Y33.061 E4.22684
G1 X76.54 Y33.06 E4.22696
G1 X76.592 Y33.067 E4.23351
G1 X76.592 Y33.068 E4.23363
G1 X77.772 Y33.243 E4.38242
G1 X77.949 Y33.273 E4.40481
G1 X78.188 Y33.317 E4.43512
G1 X78.469 Y33.379 E4.47101
G1 X78.687 Y33.436 E4.49912
G1 X78.941 Y33.507 E4.53201
G1 X78.941 Y33.506 E4.53213
G1 X79.125 Y33.564 E4.5562
G1 X79.434 Y33.672 E4.59702
G1 X79.617 Y33.741 E4.62142
G1 X79.879 Y33.85 E4.65681
G1 X80.123 Y33.959 E4.69014
G1 X80.386 Y34.088 E4.72668
G1 X80.556 Y34.179 E4.75073
G1 X80.81 Y34.323 E4.78715
G1 X81.025 Y34.453 E4.81848
G1 X81.251 Y34.599 E4.85204
G1 X81.409 Y34.708 E4.87598
G1 X81.639 Y34.879 E4.91173
G1 X81.841 Y35.038 E4.94379
G1 X82.062 Y35.222 E4.97966
G1 X82.253 Y35.393 E5.01163
G1 X82.405 Y35.535 E5.03758
G1 X82.574 Y35.704 E5.06739
G1 X82.807 Y35.952 E5.10983
G1 X82.957 Y36.122 E5.13811
G1 X83.105 Y36.3 E5.16698
G1 X83.255 Y36.492 E5.19737
G1 X83.45 Y36.756 E5.23831
G1 X83.568 Y36.927 E5.26422
G1 X83.708 Y37.144 E5.29643
G1 X83.841 Y37.364 E5.32849
G1 X83.963 Y37.582 E5.35965
G1 X84.082 Y37.811 E5.39184
G1 X84.208 Y38.068 E5.42754
G1 X84.294 Y38.258 E5.45355
G1 X84.403 Y38.522 E5.48917
G1 X84.493 Y38.761 E5.52103
G1 X84.58 Y39.012 E5.55416
G1 X84.638 Y39.198 E5.57846
G1 X84.72 Y39.493 E5.61665
G1 X84.778 Y39.727 E5.64672
G1 X84.836 Y39.991 E5.68043
G1 X84.882 Y40.242 E5.71226
G1 X84.921 Y40.507 E5.74567
G1 X84.951 Y40.747 E5.77584
G1 X84.973 Y40.993 E5.80664
G1 X84.989 Y41.248 E5.83851
G1 X84.998 Y41.527 E5.87332
G1 X84.998 Y41.768 E5.90338
G1 X84.989 Y42.047 E5.9382
G1 X84.976 Y42.265 E5.96544
G1 X84.951 Y42.548 E6.00087
G1 X84.922 Y42.789 E6.03115
G1 X84.921 Y42.789 E6.03127
G1 X84.882 Y43.051 E6.06431
G1 X84.839 Y43.287 E6.09423
G1 X84.778 Y43.567 E6.12997
G1 X84.72 Y43.803 E6.16028
G1 X84.653 Y44.047 E6.19184
G1 X84.583 Y44.275 E6.22159
G1 X84.496 Y44.526 E6.25472
G1 X84.414 Y44.741 E6.28342
G1 X84.293 Y45.038 E6.32342
G1 X84.215 Y45.212 E6.34721
G1 X84.088 Y45.472 E6.3833
G1 X83.978 Y45.684 E6.41309
G1 X83.844 Y45.923 E6.44726
G1 X83.737 Y46.102 E6.47327
G1 X83.555 Y46.385 E6.51524
G1 X83.424 Y46.575 E6.54402
G1 X83.263 Y46.793 E6.57783
G1 X83.118 Y46.98 E6.60734
G1 X83.117 Y46.979 E6.60752
G1 X82.955 Y47.174 E6.63914
G1 X82.804 Y47.347 E6.66778
G1 X82.603 Y47.563 E6.70458
G1 X82.422 Y47.744 E6.7365
G1 X82.233 Y47.921 E6.7688
G1 X82.07 Y48.066 E6.79601
G1 X81.841 Y48.257 E6.8332
G1 X81.673 Y48.389 E6.85985
G1 X81.422 Y48.575 E6.89882
G1 X79.508 Y49.897 E7.18895
G1 X81.422 Y51.219 E7.47908
G1 X81.65 Y51.388 E7.51448
G1 X81.841 Y51.538 E7.54477
G1 X82.062 Y51.722 E7.58064
G1 X82.253 Y51.893 E7.61261
G1 X82.405 Y52.035 E7.63856
G1 X82.574 Y52.204 E7.66837
G1 X82.807 Y52.452 E7.71081
G1 X82.957 Y52.622 E7.73909
G1 X83.105 Y52.8 E7.76796
G1 X83.255 Y52.992 E7.79835
G1 X83.45 Y53.256 E7.83928
G1 X83.568 Y53.427 E7.8652
G1 X83.708 Y53.644 E7.89741
G1 X83.841 Y53.864 E7.92947
G1 X83.963 Y54.082 E7.96063
G1 X84.082 Y54.311 E7.99282
G1 X84.208 Y54.568 E8.02852
G1 X84.294 Y54.758 E8.05453
G1 X84.403 Y55.022 E8.09015
G1 X84.493 Y55.261 E8.12201
G1 X84.58 Y55.512 E8.15514
G1 X84.638 Y55.698 E8.17944
G1 X84.72 Y55.993 E8.21763
G1 X84.778 Y56.227 E8.2477
G1 X84.836 Y56.491 E8.28141
G1 X84.882 Y56.742 E8.31324
G1 X84.921 Y57.007 E8.34665
G1 X84.951 Y57.247 E8.37681
G1 X84.973 Y57.493 E8.40762
G1 X84.989 Y57.748 E8.43949
G1 X84.998 Y58.027 E8.4743
G1 X84.998 Y58.268 E8.50436
G1 X84.989 Y58.547 E8.53918
G1 X84.976 Y58.765 E8.56642
G1 X84.951 Y59.048 E8.60185
G1 X84.922 Y59.289 E8.63213
G1 X84.921 Y59.289 E8.63225
G1 X84.882 Y59.551 E8.66529
G1 X84.839 Y59.787 E8.69521
G1 X84.778 Y60.067 E8.73095
G1 X84.72 Y60.303 E8.76126
G1 X84.653 Y60.547 E8.79282
G1 X84.583 Y60.775 E8.82257
G1 X84.496 Y61.026 E8.8557
G1 X84.414 Y61.241 E8.8844
G1 X84.293 Y61.538 E8.9244
G1 X84.215 Y61.712 E8.94819
G1 X84.088 Y61.972 E8.98428
G1 X83.978 Y62.184 E9.01407
G1 X83.844 Y62.423 E9.04824
G1 X83.737 Y62.602 E9.07425
G1 X83.555 Y62.885 E9.11622
G1 X83.424 Y63.075 E9.145
G1 X83.263 Y63.293 E9.1788
G1 X83.118 Y63.48 E9.20832
G1 X83.117 Y63.479 E9.20849
G1 X82.955 Y63.674 E9.24011
G1 X82.804 Y63.847 E9.26876
G1 X82.603 Y64.063 E9.30556
G1 X82.422 Y64.244 E9.33748
G1 X82.233 Y64.421 E9.36978
G1 X82.07 Y64.566 E9.39699
G1 X81.841 Y64.757 E9.43418
G1 X81.673 Y64.889 E9.46083
G1 X81.422 Y65.075 E9.49979
G1 X79.512 Y66.403 E9.78994
G1 X81.442 Y67.732 E10.08222
G1 X81.639 Y67.878 E10.1128
G1 X81.841 Y68.037 E10.14486
G1 X82.062 Y68.221 E10.18073
G1 X82.253 Y68.392 E10.2127
G1 X82.405 Y68.534 E10.23865
G1 X82.574 Y68.703 E10.26846
G1 X82.807 Y68.951 E10.3109
G1 X82.957 Y69.121 E10.33918
G1 X83.105 Y69.299 E10.36805
G1 X83.255 Y69.491 E10.39844
G1 X83.45 Y69.755 E10.43938
G1 X83.568 Y69.926 E10.46529
G1 X83.708 Y70.143 E10.4975
G1 X83.841 Y70.363 E10.52956
G1 X83.963 Y70.581 E10.56072
G1 X84.082 Y70.81 E10.59291
G1 X84.208 Y71.067 E10.62861
G1 X84.294 Y71.257 E10.65462
G1 X84.403 Y71.521 E10.69024
G1 X84.493 Y71.76 E10.7221
G1 X84.58 Y72.011 E10.75523
G1 X84.638 Y72.197 E10.77953
G1 X84.72 Y72.492 E10.81772
G1 X84.778 Y72.726 E10.84779
G1 X84.836 Y72.99 E10.8815
G1 X84.882 Y73.241 E10.91333
G1 X84.921 Y73.506 E10.94674
G1 X84.951 Y73.746 E10.97691
G1 X84.973 Y73.992 E11.00771
G1 X84.989 Y74.247 E11.03958
G1 X84.998 Y74.526 E11.07439
G1 X84.998 Y74.767 E11.10445
G1 X84.989 Y75.046 E11.13927
G1 X84.976 Y75.264 E11.16651
G1 X84.951 Y75.547 E11.20194
G1 X84.922 Y75.788 E11.23222
G1 X84.921 Y75.788 E11.23234
G1 X84.882 Y76.05 E11.26538
G1 X84.839 Y76.286 E11.2953
G1 X84.778 Y76.566 E11.33104
G1 X84.72 Y76.802 E11.36135
G1 X84.653 Y77.046 E11.39291
G1 X84.583 Y77.274 E11.42266
G1 X84.496 Y77.525 E11.45579
G1 X84.414 Y77.74 E11.48449
G1 X84.293 Y78.037 E11.52449
G1 X84.215 Y78.211 E11.54828
G1 X84.088 Y78.471 E11.58437
G1 X83.978 Y78.683 E11.61416
G1 X83.844 Y78.922 E11.64833
G1 X83.737 Y79.101 E11.67434
G1 X83.555 Y79.384 E11.71631
G1 X83.424 Y79.574 E11.74509
G1 X83.263 Y79.792 E11.7789
G1 X83.118 Y79.979 E11.80841
G1 X83.117 Y79.978 E11.80859
G1 X82.955 Y80.173 E11.84021
G1 X82.804 Y80.346 E11.86885
G1 X82.603 Y80.562 E11.90565
G1 X82.422 Y80.743 E11.93757
G1 X82.233 Y80.92 E11.96987
G1 X82.07 Y81.065 E11.99708
G1 X81.841 Y81.256 E12.03427
G1 X81.673 Y81.388 E12.06092
G1 X81.415 Y81.579 E12.10096
G1 X81.264 Y81.684 E12.1239
G1 X81.023 Y81.84 E12.1597
G1 X80.838 Y81.954 E12.18681
G1 X80.54 Y82.123 E12.22954
G1 X80.368 Y82.213 E12.25375
G1 X80.126 Y82.332 E12.28738
G1 X79.922 Y82.425 E12.31535
G1 X79.618 Y82.552 E12.35644
G1 X79.413 Y82.63 E12.3838
G1 X79.158 Y82.721 E12.41757
G1 X78.925 Y82.792 E12.44795
G1 X78.665 Y82.864 E12.4816
G1 X78.43 Y82.922 E12.51179
G1 X78.167 Y82.979 E12.54535
G1 X78.167 Y82.98 E12.54548
G1 X77.926 Y83.025 E12.57605
G1 X77.926 Y83.024 E12.57618
G1 X77.764 Y83.052 E12.59668
G1 X76.678 Y83.213 E12.73362
G1 X76.678 Y83.214 E12.73374
G1 X76.61 Y83.223 E12.7423
G1 X75.505 Y83.373 E12.88138
G1 X74.322 Y83.518 E13.03004
G1 X74.322 Y83.517 E13.03016
G1 X74.27 Y83.523 E13.03669
G1 X73.148 Y83.647 E13.17748
G1 X73.09 Y83.653 E13.18476
G1 X72.116 Y83.75 E13.30684
G1 X71.729 Y84.866 E13.45417
G1 X71.647 Y85.084 E13.48322
G1 X71.55 Y85.323 E13.51539
G1 X71.446 Y85.556 E13.54721
G1 X71.322 Y85.814 E13.58291
G1 X71.226 Y86.002 E13.60924
G1 X71.087 Y86.253 E13.64503
G1 X70.987 Y86.424 E13.66974
G1 X70.837 Y86.663 E13.70493
G1 X70.717 Y86.842 E13.73181
G1 X70.368 Y87.303 E13.80393
G1 X70.348 Y87.327 E13.80782
G1 X69.779 Y87.889 E13.90757
G1 X69.754 Y87.91 E13.91164
G1 X69.089 Y88.378 E14.01307
G1 X69.059 Y88.395 E14.01737
G1 X68.456 Y88.692 E14.10121
G1 X68.443 Y88.698 E14.10299
G1 X67.691 Y88.936 E14.20137
G1 X67.662 Y88.943 E14.20509
G1 X66.986 Y89.049 E14.29044
G1 X66.959 Y89.051 E14.29381
G1 X66.193 Y89.054 E14.38935
G1 X66.159 Y89.052 E14.3936
G1 X65.385 Y88.928 E14.49137
G1 X65.346 Y88.919 E14.49636
G1 X64.669 Y88.698 E14.58519
G1 X64.64 Y88.686 E14.5891
G1 X63.521 Y88.107 E14.74624
G1 X62.286 Y88.714 E14.91788
G1 X62.247 Y88.73 E14.92314
G1 X61.525 Y88.949 E15.01724
G1 X61.493 Y88.955 E15.0213
G1 X60.724 Y89.059 E15.11809
G1 X60.679 Y89.061 E15.12371
G1 X60.014 Y89.049 E15.20666
G1 X59.996 Y89.048 E15.20891
G1 X59.276 Y88.928 E15.29995
G1 X59.221 Y88.915 E15.307
G1 X58.462 Y88.657 E15.40699
G1 X58.416 Y88.636 E15.4133
G1 X57.811 Y88.318 E15.49854
G1 X57.779 Y88.297 E15.50332
G1 X57.178 Y87.852 E15.59659
G1 X57.149 Y87.827 E15.60136
G1 X56.611 Y87.278 E15.69724
G1 X56.588 Y87.249 E15.70185
G1 X56.271 Y86.824 E15.76798
G1 X56.157 Y86.652 E15.79372
G1 X56.021 Y86.435 E15.82566
G1 X55.913 Y86.252 E15.85216
G1 X55.774 Y86.002 E15.88784
G1 X55.678 Y85.814 E15.91417
G1 X55.554 Y85.556 E15.94987
G1 X55.45 Y85.323 E15.9817
G1 X55.353 Y85.084 E16.01387
G1 X55.271 Y84.866 E16.04292
G1 X54.884 Y83.75 E16.19024
G1 X53.91 Y83.653 E16.31233
G1 X53.851 Y83.647 E16.31972
G1 X52.729 Y83.523 E16.46052
G1 X52.676 Y83.517 E16.46717
G1 X51.497 Y83.373 E16.61531
G1 X50.39 Y83.223 E16.75465
G1 X50.322 Y83.214 E16.7632
G1 X50.322 Y83.213 E16.76333
G1 X49.236 Y83.052 E16.90026
G1 X49.074 Y83.024 E16.92077
G1 X49.074 Y83.025 E16.92089
G1 X48.833 Y82.98 E16.95147
G1 X48.833 Y82.979 E16.95159
G1 X48.57 Y82.922 E16.98516
G1 X48.335 Y82.864 E17.01535
G1 X48.075 Y82.792 E17.049
G1 X47.842 Y82.721 E17.07938
G1 X47.587 Y82.63 E17.11315
G1 X47.382 Y82.552 E17.1405
G1 X47.078 Y82.425 E17.1816
G1 X46.874 Y82.332 E17.20956
G1 X46.632 Y82.213 E17.24319
G1 X46.46 Y82.123 E17.26741
G1 X46.162 Y81.954 E17.31014
G1 X45.977 Y81.84 E17.33724
G1 X45.736 Y81.684 E17.37305
G1 X45.585 Y81.579 E17.39598
G1 X45.327 Y81.388 E17.43602
G1 X45.159 Y81.256 E17.46267
G1 X44.93 Y81.065 E17.49986
G1 X44.767 Y80.92 E17.52707
G1 X44.578 Y80.743 E17.55937
G1 X44.397 Y80.562 E17.5913
G1 X44.196 Y80.346 E17.6281
G1 X44.045 Y80.173 E17.65674
G1 X43.883 Y79.978 E17.68836
G1 X43.882 Y79.979 E17.68853
G1 X43.737 Y79.792 E17.71805
G1 X43.576 Y79.574 E17.75185
G1 X43.445 Y79.384 E17.78063
G1 X43.263 Y79.101 E17.8226
G1 X43.156 Y78.922 E17.84861
G1 X43.022 Y78.683 E17.88279
G1 X42.912 Y78.471 E17.91258
G1 X42.785 Y78.211 E17.94867
G1 X42.707 Y78.037 E17.97245
G1 X42.586 Y77.74 E18.01245
G1 X42.504 Y77.525 E18.04115
G1 X42.417 Y77.274 E18.07428
G1 X42.347 Y77.046 E18.10403
G1 X42.28 Y76.802 E18.13559
G1 X42.222 Y76.566 E18.1659
G1 X42.161 Y76.286 E18.20164
G1 X42.118 Y76.05 E18.23156
G1 X42.079 Y75.788 E18.2646
G1 X42.078 Y75.788 E18.26473
G1 X42.049 Y75.547 E18.295
G1 X42.024 Y75.264 E18.33044
G1 X42.011 Y75.046 E18.35767
G1 X42.002 Y74.767 E18.39249
G1 X42.002 Y74.526 E18.42255
G1 X42.011 Y74.247 E18.45737
G1 X42.024 Y74.03 E18.48448
G1 X42.049 Y73.746 E18.52004
G1 X42.079 Y73.506 E18.55021
G1 X42.115 Y73.258 E18.58146
G1 X42.161 Y73.006 E18.61341
G1 X42.222 Y72.726 E18.64915
G1 X42.28 Y72.492 E18.67922
G1 X42.358 Y72.211 E18.7156
G1 X42.415 Y72.026 E18.73974
G1 X42.507 Y71.76 E18.77485
G1 X42.597 Y71.521 E18.8067
G1 X42.706 Y71.257 E18.84232
G1 X42.792 Y71.067 E18.86834
G1 X42.913 Y70.82 E18.90264
G1 X43.037 Y70.581 E18.93622
G1 X43.151 Y70.377 E18.96537
G1 X43.284 Y70.156 E18.99754
G1 X43.432 Y69.926 E19.03165
G1 X43.551 Y69.754 E19.05774
G1 X43.738 Y69.5 E19.09708
G1 X43.886 Y69.31 E19.12712
G1 X44.043 Y69.121 E19.15777
G1 X44.193 Y68.951 E19.18604
G1 X44.426 Y68.703 E19.22848
G1 X44.595 Y68.534 E19.25829
G1 X44.747 Y68.392 E19.28424
G1 X44.938 Y68.221 E19.31621
G1 X45.149 Y68.045 E19.35048
G1 X45.361 Y67.878 E19.38414
G1 X45.558 Y67.732 E19.41473
G1 X47.488 Y66.403 E19.707
G1 X45.578 Y65.075 E19.99715
G1 X45.327 Y64.889 E20.03611
G1 X45.159 Y64.757 E20.06276
G1 X44.93 Y64.566 E20.09995
G1 X44.767 Y64.421 E20.12716
G1 X44.578 Y64.244 E20.15946
G1 X44.397 Y64.063 E20.19139
G1 X44.196 Y63.847 E20.22819
G1 X44.045 Y63.674 E20.25683
G1 X43.883 Y63.479 E20.28845
G1 X43.882 Y63.48 E20.28862
G1 X43.737 Y63.293 E20.31814
G1 X43.576 Y63.075 E20.35194
G1 X43.445 Y62.885 E20.38072
G1 X43.263 Y62.602 E20.42269
G1 X43.156 Y62.423 E20.4487
G1 X43.022 Y62.184 E20.48288
G1 X42.912 Y61.972 E20.51267
G1 X42.785 Y61.712 E20.54876
G1 X42.707 Y61.538 E20.57254
G1 X42.586 Y61.241 E20.61254
G1 X42.504 Y61.026 E20.64124
G1 X42.417 Y60.775 E20.67437
G1 X42.347 Y60.547 E20.70412
G1 X42.28 Y60.303 E20.73568
G1 X42.222 Y60.067 E20.76599
G1 X42.161 Y59.787 E20.80173
G1 X42.118 Y59.551 E20.83165
G1 X42.079 Y59.289 E20.86469
G1 X42.078 Y59.289 E20.86482
G1 X42.049 Y59.048 E20.89509
G1 X42.024 Y58.765 E20.93053
G1 X42.011 Y58.547 E20.95777
G1 X42.002 Y58.268 E20.99258
G1 X42.002 Y58.027 E21.02264
G1 X42.011 Y57.748 E21.05746
G1 X42.024 Y57.531 E21.08457
G1 X42.049 Y57.247 E21.12013
G1 X42.079 Y57.007 E21.1503
G1 X42.115 Y56.759 E21.18155
G1 X42.161 Y56.507 E21.2135
G1 X42.222 Y56.227 E21.24925
G1 X42.28 Y55.993 E21.27931
G1 X42.358 Y55.712 E21.31569
G1 X42.415 Y55.527 E21.33983
G1 X42.507 Y55.261 E21.37494
G1 X42.597 Y55.022 E21.40679
G1 X42.706 Y54.758 E21.44241
G1 X42.792 Y54.568 E21.46843
G1 X42.913 Y54.321 E21.50273
G1 X43.037 Y54.082 E21.53631
G1 X43.151 Y53.878 E21.56546
G1 X43.284 Y53.657 E21.59763
G1 X43.432 Y53.427 E21.63175
G1 X43.551 Y53.255 E21.65783
G1 X43.738 Y53.001 E21.69717
G1 X43.886 Y52.811 E21.72721
G1 X44.043 Y52.622 E21.75786
G1 X44.193 Y52.452 E21.78613
G1 X44.426 Y52.204 E21.82858
G1 X44.595 Y52.035 E21.85839
G1 X44.747 Y51.893 E21.88433
G1 X44.938 Y51.722 E21.9163
G1 X45.149 Y51.546 E21.95058
G1 X45.35 Y51.388 E21.98246
G1 X45.578 Y51.219 E22.01786
G1 X47.492 Y49.897 E22.30799
G1 X45.578 Y48.575 E22.59813
G1 X45.327 Y48.389 E22.63709
G1 X45.159 Y48.257 E22.66374
G1 X44.93 Y48.066 E22.70093
G1 X44.767 Y47.921 E22.72814
G1 X44.578 Y47.744 E22.76044
G1 X44.397 Y47.563 E22.79237
G1 X44.196 Y47.347 E22.82917
G1 X44.045 Y47.174 E22.85781
G1 X43.883 Y46.979 E22.88943
G1 X43.882 Y46.98 E22.8896
G1 X43.737 Y46.793 E22.91912
G1 X43.576 Y46.575 E22.95292
