;FLAVOR:RepRap
;TIME:6720
;Generated with Cura_SteamEngine 2.3.1
M104 S190
M109 S190

;LAYER_COUNT:250
;LAYER:-6
M107
G1 F2400 E-1
G1 Z20.074
G0 F7200 X37.71 Y18.911 Z.373
G1 Z.299
G1 F2400 E0
G1 F900 X37.927 Y18.553 E0.05204
G1 X39.763 Y16.246 E0.41856
G1 X39.992 Y16.011 E0.45935
G1 X40.245 Y15.838 E0.49745
G1 X40.509 Y15.726 E0.53309
G1 X40.812 Y15.666 E0.57149
G1 X41.104 Y15.666 E0.60779
G1 X41.408 Y15.729 E0.64638
G1 X41.665 Y15.838 E0.68109
G1 X42.036 Y16.116 E0.73872
G1 X42.71 Y16.788 E0.85703
G1 X42.758 Y16.836 E0.86547
G1 X43.011 Y17.104 E0.91128
G1 X43.099 Y17.204 E0.92784
G1 X44.771 Y19.234 E1.25477
G1 X44.901 Y19.412 E1.28217
G1 X46.52 Y21.964 E1.65786
G1 X46.628 Y22.163 E1.68601
G1 X47.909 Y24.939 E2.06606
G1 X47.943 Y25.021 E2.07709
G1 X62.227 Y62.36 E7.04674
G1 X62.273 Y62.491 E7.064
G1 X63.131 Y65.247 E7.42281
G1 X63.186 Y65.472 E7.45161
G1 X63.687 Y68.317 E7.81071
G1 X63.712 Y68.545 E7.83922
G1 X63.849 Y71.424 E8.19752
G1 X63.845 Y71.662 E8.22711
G1 X63.614 Y74.535 E8.5854
G1 X63.582 Y74.755 E8.61304
G1 X62.985 Y77.587 E8.97282
G1 X62.919 Y77.826 E9.00364
G1 X61.974 Y80.541 E9.361
G1 X61.894 Y80.731 E9.38663
G1 X60.592 Y83.344 E9.74954
G1 X60.486 Y83.526 E9.77572
G1 X58.872 Y85.939 E10.1366
G1 X58.745 Y86.104 E10.16248
G1 X56.83 Y88.303 E10.52496
G1 X56.678 Y88.456 E10.55177
G1 X54.522 Y90.373 E10.91041
G1 X54.42 Y90.457 E10.92683
G1 X48.058 Y95.424 E11.93017
G1 X47.592 Y95.88 E12.01122
G1 X47.29 Y96.354 E12.08109
G1 X47.101 Y96.892 E12.15197
G1 X47.027 Y97.528 E12.23157
G1 X47.027 Y105.075 E13.16973
G1 X47.126 Y105.818 E13.26291
G1 X47.372 Y106.413 E13.34295
G1 X47.769 Y106.934 E13.42437
G1 X48.284 Y107.326 E13.50483
G1 X48.886 Y107.575 E13.58581
G1 X49.623 Y107.673 E13.67824
G1 X85.988 Y107.673 E18.19876
G1 X84.27 Y103.188 E18.79579
G1 X84.188 Y102.881 E18.83529
G1 X84.168 Y102.577 E18.87317
G1 X84.208 Y102.283 E18.91005
G1 X84.305 Y102.003 E18.94689
G1 X84.458 Y101.745 E18.98417
G1 X84.66 Y101.521 E19.02167
G1 X84.906 Y101.34 E19.05963
G1 X85.14 Y101.227 E19.09194
G1 X87.905 Y100.167 E19.46005
G1 X88.218 Y100.083 E19.50033
G1 X88.514 Y100.063 E19.53721
G1 X88.815 Y100.103 E19.57496
G1 X89.095 Y100.201 E19.61183
G1 X89.357 Y100.355 E19.64961
G1 X89.573 Y100.55 E19.68579
G1 X89.755 Y100.798 E19.72403
G1 X89.871 Y101.038 E19.75716
G1 X91.831 Y106.159 E20.43879
G1 X91.887 Y106.336 E20.46187
G1 X92.128 Y107.276 E20.5825
G1 X92.183 Y107.71 E20.63688
G1 X92.185 Y108.61 E20.74876
G1 X92.134 Y109.037 E20.80221
G1 X91.921 Y109.907 E20.91356
G1 X91.77 Y110.309 E20.96694
G1 X91.351 Y111.109 E21.0792
G1 X91.11 Y111.46 E21.13213
G1 X90.515 Y112.132 E21.2437
G1 X90.199 Y112.414 E21.29635
G1 X89.451 Y112.933 E21.40953
G1 X89.086 Y113.124 E21.46074
G1 X88.227 Y113.45 E21.57495
G1 X87.822 Y113.55 E21.62681
G1 X86.905 Y113.661 E21.74163
G1 X86.701 Y113.673 E21.76704
G1 X49.532 Y113.673 E26.3875
G1 X49.364 Y113.663 E26.40843
G1 X47.82 Y113.49 E26.60156
G1 X47.455 Y113.407 E26.64809
G1 X46.018 Y112.904 E26.83735
G1 X45.671 Y112.737 E26.88522
G1 X44.392 Y111.933 E27.07302
G1 X44.076 Y111.682 E27.12319
G1 X43.01 Y110.617 E27.3105
G1 X42.771 Y110.316 E27.35828
G1 X41.967 Y109.037 E27.54608
G1 X41.792 Y108.675 E27.59606
G1 X41.296 Y107.253 E27.78327
G1 X41.212 Y106.879 E27.83092
G1 X41.036 Y105.328 E28.02496
G1 X41.027 Y105.168 E28.04488
G1 X41.027 Y97.44 E29.00555
G1 X41.035 Y97.295 E29.0236
G1 X41.215 Y95.72 E29.22067
G1 X41.301 Y95.35 E29.26789
G1 X41.814 Y93.9 E29.45908
G1 X41.984 Y93.552 E29.50723
G1 X42.807 Y92.26 E29.69765
G1 X43.058 Y91.951 E29.74714
G1 X44.153 Y90.878 E29.93772
G1 X44.32 Y90.73 E29.96546
G1 X50.682 Y85.764 E30.96872
G1 X52.68 Y83.963 E31.30311
G1 X54.352 Y81.96 E31.62745
G1 X55.734 Y79.73 E31.95358
G1 X56.779 Y77.34 E32.27783
G1 X57.479 Y74.826 E32.60224
G1 X57.817 Y72.229 E32.92779
G1 X57.788 Y69.614 E33.25288
G1 X57.388 Y67.03 E33.57793
G1 X56.613 Y64.476 E33.90971
G1 X42.358 Y27.214 E38.86912
G1 X41.305 Y24.934 E39.18132
G1 X39.977 Y22.839 E39.48966
G1 X38.903 Y21.505 E39.70256
G1 X38.399 Y20.959 E39.79492
G1 X38.024 Y20.579 E39.86129
G1 X37.827 Y20.337 E39.90008
G1 X37.689 Y20.072 E39.93722
G1 X37.605 Y19.782 E39.97475
G1 X37.581 Y19.485 E40.01179
G1 X37.617 Y19.191 E40.04861
G1 X37.71 Y18.911 E40.08529
G0 F7200 X39 Y17.204
G1 F900 X39 Y21.625 E40.63486
G0 F7200 X42 Y26.438
G1 F900 X42 Y16.09 E41.92122
G0 F7200 X45 Y19.569
G1 F900 X45 Y34.12 E43.73005
G0 F7200 X51 Y33.013
G1 F900 X51 Y49.803 E45.81721
G0 F7200 X57 Y48.697
G1 F900 X57 Y65.751 E47.93719
G0 F7200 X63 Y64.827
G1 F900 X63 Y77.516 E49.51456
G0 F7200 X57 Y76.546
G1 F900 X57 Y88.108 E50.95183
G0 F7200 X54 Y90.785
G1 F900 X54 Y82.381 E51.99653
G0 F7200 X51 Y85.477
G1 F900 X51 Y93.128 E52.94762
G0 F7200 X48 Y95.481
G1 F900 X48 Y87.857 E53.89536
G0 F7200 X45 Y90.199
G1 F900 X45 Y112.315 E56.64459
G0 F7200 X48 Y113.51
G1 F900 X48 Y107.11 E57.44018
G0 F7200 X51 Y107.673
G1 F900 X51 Y113.673 E58.18603
G0 F7200 X54 Y113.673
G1 F900 X54 Y107.673 E58.93189
G0 F7200 X57 Y107.673
G1 F900 X57 Y113.673 E59.67775
G0 F7200 X60 Y113.673
G1 F900 X60 Y107.673 E60.42361
G0 F7200 X63 Y107.673
G1 F900 X63 Y113.673 E61.16947
G0 F7200 X66 Y113.673
G1 F900 X66 Y107.673 E61.91533
G0 F7200 X69 Y107.673
G1 F900 X69 Y113.673 E62.66119
G0 F7200 X72 Y113.673
G1 F900 X72 Y107.673 E63.40704
G0 F7200 X75 Y107.673
G1 F900 X75 Y113.673 E64.1529
G0 F7200 X78 Y113.673
G1 F900 X78 Y107.673 E64.89876
G0 F7200 X81 Y107.673
G1 F900 X81 Y113.673 E65.64462
G0 F7200 X84 Y113.673
G1 F900 X84 Y107.673 E66.39048
G0 F7200 X87 Y113.65
G1 F900 X87 Y100.513 E68.02353
G0 F7200 X90 Y101.376
G1 F900 X90 Y112.553 E69.41295
G0 F7200 X49.032 Y107.029
G0 X48.57 Y106.838
G0 X48.167 Y106.531
G0 X47.862 Y106.13
G0 X47.672 Y105.672
G0 X47.588 Y105.038
G0 X47.588 Y97.555
G0 X47.651 Y97.018
G0 X47.798 Y96.602
G0 X48.029 Y96.237
G0 X60 Y84.253
G1 F900 X60 Y56.539 E72.85807
G0 F7200 X54 Y57.645
G1 F900 X54 Y40.855 E74.94523
G0 F7200 X48 Y41.961
G1 F900 X48 Y25.171 E77.03239
G0 F7200 X56.84 Y67.156
G0 X57.227 Y69.661
G0 X57.256 Y72.196
G0 X56.929 Y74.714
G0 X56.252 Y77.145
G0 X55.236 Y79.469
G0 X53.896 Y81.631
G0 X52.273 Y83.574
G0 X42 Y93.526
G1 F900 X42 Y109.089 E78.96702
;TIME_ELAPSED:53.439143
;LAYER:-5
G0 F7200 X41.785 Y109.124 Z.599
;TYPE:SUPPORT
G1 F2700 X41.608 Y108.755 E78.9976
G1 X41.394 Y108.145 E79.04589
G1 X46.552 Y113.303 E79.59087
G1 X47.391 Y113.597 E79.65729
G1 X47.796 Y113.689 E79.68832
G1 X48.103 Y113.723 E79.71139
G1 X40.977 Y106.597 E80.4643
G1 X40.836 Y105.349 E80.55814
G1 X40.834 Y105.322 E80.56016
G1 X49.376 Y113.864 E81.46268
G1 X49.52 Y113.873 E81.47346
G1 X50.516 Y113.873 E81.54787
G1 X40.825 Y104.182 E82.57179
G1 X40.825 Y103.05 E82.65636
G1 X51.647 Y113.873 E83.79983
G1 X52.779 Y113.873 E83.8844
G1 X40.825 Y101.919 E85.14742
G1 X40.825 Y100.788 E85.23192
G1 X53.91 Y113.873 E86.61444
G1 X55.041 Y113.873 E86.69894
G1 X48.104 Y106.935 E87.43193
G1 X48.384 Y107.149 E87.45826
G1 X48.938 Y107.378 E87.50305
G1 X49.636 Y107.471 E87.55565
G1 X49.771 Y107.471 E87.56574
G1 X56.173 Y113.873 E88.24215
G1 X57.304 Y113.873 E88.32665
G1 X50.903 Y107.471 E89.00301
G1 X52.034 Y107.471 E89.08751
G1 X58.436 Y113.873 E89.76393
G1 X59.567 Y113.873 E89.84842
G1 X53.165 Y107.471 E90.52484
G1 X54.297 Y107.471 E90.60941
G1 X60.698 Y113.873 E91.28577
G1 X61.83 Y113.873 E91.37034
G1 X55.428 Y107.471 E92.04676
G1 X56.56 Y107.471 E92.13133
G1 X62.961 Y113.873 E92.80769
G1 X64.092 Y113.873 E92.89219
G1 X57.691 Y107.471 E93.56855
G1 X58.822 Y107.471 E93.65305
G1 X65.224 Y113.873 E94.32946
G1 X66.355 Y113.873 E94.41396
G1 X59.954 Y107.471 E95.09032
G1 X61.085 Y107.471 E95.17482
G1 X67.486 Y113.873 E95.85118
G1 X68.618 Y113.873 E95.93575
G1 X62.216 Y107.471 E96.61217
G1 X63.348 Y107.471 E96.69674
G1 X69.749 Y113.873 E97.3731
G1 X70.881 Y113.873 E97.45767
G1 X64.479 Y107.471 E98.13409
G1 X65.611 Y107.471 E98.21866
G1 X72.012 Y113.873 E98.89502
G1 X73.143 Y113.873 E98.97952
G1 X66.742 Y107.471 E99.65588
G1 X67.873 Y107.471 E99.74038
G1 X74.275 Y113.873 E100.41679
G1 X75.406 Y113.873 E100.50129
G1 X69.005 Y107.471 E101.17765
G1 X70.136 Y107.471 E101.26215
G1 X76.537 Y113.873 E101.93851
G1 X77.669 Y113.873 E102.02308
G1 X71.267 Y107.471 E102.6995
G1 X72.399 Y107.471 E102.78407
G1 X78.8 Y113.873 E103.46043
G1 X79.932 Y113.873 E103.545
G1 X73.53 Y107.471 E104.22142
G1 X74.661 Y107.471 E104.30592
G1 X81.063 Y113.873 E104.98233
G1 X82.194 Y113.873 E105.06683
G1 X75.793 Y107.471 E105.74319
G1 X76.924 Y107.471 E105.82769
G1 X83.326 Y113.873 E106.5041
G1 X84.457 Y113.873 E106.5886
G1 X78.056 Y107.471 E107.26496
G1 X79.187 Y107.471 E107.34946
G1 X85.588 Y113.873 E108.02582
G1 X86.713 Y113.873 E108.10987
G1 X86.719 Y113.872 E108.11032
G1 X80.318 Y107.471 E108.78663
G1 X81.45 Y107.471 E108.8712
G1 X87.739 Y113.76 E109.53568
G1 X87.86 Y113.746 E109.54478
G1 X88.287 Y113.64 E109.57765
G1 X88.623 Y113.513 E109.60449
G1 X82.581 Y107.471 E110.24286
G1 X83.712 Y107.471 E110.32736
G1 X89.417 Y113.175 E110.93008
G1 X89.556 Y113.103 E110.94177
G1 X90.099 Y112.726 E110.99116
G1 X84.844 Y107.471 E111.54639
G1 X85.696 Y107.471 E111.61004
G1 X85.523 Y107.019 E111.6462
G1 X90.713 Y112.209 E112.19456
G1 X91.245 Y111.609 E112.25447
G1 X84.819 Y105.184 E112.93336
G1 X84.116 Y103.35 E113.0801
G1 X91.679 Y110.913 E113.87919
G1 X91.953 Y110.389 E113.92336
G1 X92.045 Y110.147 E113.94271
G1 X84.042 Y102.144 E114.78828
G1 X84.123 Y101.913 E114.80657
G1 X84.294 Y101.624 E114.83165
G1 X84.465 Y101.435 E114.8507
G1 X92.288 Y109.258 E115.67725
G1 X92.332 Y109.075 E115.69131
G1 X92.386 Y108.624 E115.72524
G1 X92.385 Y108.224 E115.75513
G1 X85.162 Y101.001 E116.51829
G1 X85.98 Y100.688 E116.58372
G1 X92.254 Y106.961 E117.24656
G1 X92.077 Y106.27 E117.29985
G1 X92.012 Y106.07 E117.31556
G1 X91.715 Y105.291 E117.37785
G1 X86.798 Y100.375 E117.89731
G1 X87.616 Y100.061 E117.96277
G1 X91.013 Y103.458 E118.32169
G1 X90.311 Y101.625 E118.46833
G1 X88.55 Y99.863 E118.65444
G0 F7200 X85.148 Y107.095
G0 X49.659 Y107.112
G0 X49.032 Y107.029
G0 X48.57 Y106.838
G0 X48.167 Y106.531
G0 X47.862 Y106.13
G0 X47.672 Y105.672
G0 X47.588 Y105.038
G0 X47.588 Y97.555
G0 X47.651 Y97.018
G0 X47.798 Y96.602
G0 X48.029 Y96.237
G0 X60.66 Y83.627
G1 F2700 X60.343 Y84.101 E118.69705
G1 X55.652 Y79.411 E119.19263
G1 X55.555 Y79.635 E119.21087
G1 X55.244 Y80.134 E119.2548
G1 X59.889 Y84.779 E119.74557
G1 X59.436 Y85.458 E119.80655
G1 X54.812 Y80.833 E120.29516
G1 X54.379 Y81.532 E120.35659
G1 X58.977 Y86.13 E120.8424
G1 X58.89 Y86.242 E120.853
G1 X58.457 Y86.741 E120.90236
G1 X53.901 Y82.185 E121.38373
G1 X53.386 Y82.802 E121.44377
G1 X57.93 Y87.346 E121.92388
G1 X57.403 Y87.95 E121.98376
G1 X52.871 Y83.418 E122.4626
G1 X52.535 Y83.821 E122.5018
G1 X52.329 Y84.007 E122.52254
G1 X56.869 Y88.548 E123.00227
G1 X56.812 Y88.605 E123.00829
G1 X56.273 Y89.083 E123.06212
G1 X51.734 Y84.544 E123.54169
G1 X51.139 Y85.08 E123.60152
G1 X55.674 Y89.615 E124.08068
G1 X55.075 Y90.148 E124.14058
G1 X50.543 Y85.616 E124.61941
G1 X49.909 Y86.112 E124.67955
G1 X54.468 Y90.672 E125.1613
G1 X53.833 Y91.168 E125.22149
G1 X49.273 Y86.608 E125.70329
G1 X48.637 Y87.104 E125.76355
G1 X53.197 Y91.664 E126.24534
G1 X52.562 Y92.16 E126.30554
G1 X48.002 Y87.6 E126.78733
G1 X47.366 Y88.096 E126.84759
G1 X51.927 Y92.656 E127.32944
G1 X51.292 Y93.152 E127.38964
G1 X46.731 Y88.592 E127.87148
G1 X46.096 Y89.088 E127.93168
G1 X50.657 Y93.649 E128.41358
G1 X50.021 Y94.144 E128.47379
G1 X45.461 Y89.584 E128.95559
G1 X44.825 Y90.08 E129.01585
G1 X49.386 Y94.641 E129.49775
G1 X48.75 Y95.136 E129.55796
G1 X44.189 Y90.576 E130.03981
G1 X44.184 Y90.58 E130.04028
G1 X44.023 Y90.723 E130.05637
G1 X43.61 Y91.128 E130.09959
G1 X48.122 Y95.64 E130.57631
G1 X47.748 Y96.006 E130.61541
G1 X47.596 Y96.245 E130.63657
G1 X43.038 Y91.687 E131.11815
G1 X42.91 Y91.812 E131.13152
G1 X42.639 Y92.148 E131.16377
G1 X42.533 Y92.313 E131.17842
G1 X47.283 Y97.063 E131.68029
G1 X47.228 Y97.539 E131.71609
G1 X47.228 Y98.14 E131.76099
G1 X42.092 Y93.004 E132.30364
G1 X41.812 Y93.444 E132.34261
G1 X41.677 Y93.72 E132.36556
G1 X47.228 Y99.271 E132.95206
G1 X47.228 Y100.402 E133.03656
G1 X41.372 Y94.546 E133.65528
G1 X41.106 Y95.296 E133.71474
G1 X41.085 Y95.39 E133.72193
G1 X47.228 Y101.534 E134.37103
G1 X47.228 Y102.665 E134.45553
G1 X40.937 Y96.374 E135.12022
G1 X40.837 Y97.253 E135.18631
G1 X40.829 Y97.397 E135.19709
G1 X47.228 Y103.796 E135.87319
G1 X47.228 Y104.928 E135.95776
G1 X40.825 Y98.525 E136.63428
G1 X40.825 Y99.656 E136.71878
G1 X47.767 Y106.598 E137.45224
G0 F7200 X42.828 Y110.71
G1 F2700 X42.606 Y110.43 E137.47894
G1 X41.785 Y109.124 E137.59419
G0 F7200 X42.828 Y110.71
G1 F2700 X43.979 Y111.862 E137.71585
G0 F7200 X47.651 Y97.018
G0 X47.798 Y96.602
G0 X48.029 Y96.237
G0 X60.66 Y83.627
G1 F2700 X60.77 Y83.438 E137.73219
G1 X60.784 Y83.411 E137.73446
G1 X55.997 Y78.624 E138.24024
G1 X56.341 Y77.837 E138.30441
G1 X61.16 Y82.656 E138.81357
G1 X61.536 Y81.901 E138.87659
G1 X56.658 Y77.023 E139.39198
G1 X56.904 Y76.137 E139.46068
G1 X61.912 Y81.146 E139.98986
G1 X62.074 Y80.82 E140.01706
G1 X62.165 Y80.601 E140.03477
G1 X62.252 Y80.354 E140.05434
G1 X57.151 Y75.253 E140.59329
G1 X57.282 Y74.785 E140.6296
G1 X57.342 Y74.313 E140.66515
G1 X62.544 Y79.514 E141.21472
G1 X62.836 Y78.675 E141.28109
G1 X57.472 Y73.312 E141.84778
G1 X57.603 Y72.31 E141.92328
G1 X63.125 Y77.833 E142.50677
G1 X63.177 Y77.647 E142.5212
G1 X63.332 Y76.909 E142.57754
G1 X57.603 Y71.18 E143.18284
G1 X57.591 Y70.036 E143.26832
G1 X63.53 Y75.975 E143.89581
G1 X63.726 Y75.04 E143.96719
G1 X57.453 Y68.766 E144.63002
G1 X57.245 Y67.427 E144.73126
G1 X63.855 Y74.037 E145.42965
G1 X63.939 Y72.99 E145.50812
G1 X56.828 Y65.879 E146.25945
G1 X56.422 Y64.54 E146.36398
G1 X56.299 Y64.219 E146.38967
G1 X64.023 Y71.943 E147.20576
G1 X64.045 Y71.665 E147.22659
G1 X64.049 Y71.437 E147.24363
G1 X64.02 Y70.808 E147.29067
G1 X55.599 Y62.387 E148.18041
G1 X54.897 Y60.554 E148.32705
G1 X63.964 Y69.621 E149.28504
G1 X63.911 Y68.512 E149.36799
G1 X63.901 Y68.427 E149.37438
G1 X54.196 Y58.722 E150.39978
G1 X53.495 Y56.889 E150.5464
G1 X63.67 Y67.064 E151.62146
G1 X63.428 Y65.691 E151.72562
G1 X52.794 Y55.057 E152.84917
G1 X52.093 Y53.225 E152.99572
G1 X62.991 Y64.123 E154.14716
G1 X62.479 Y62.479 E154.27581
G1 X51.392 Y51.392 E155.44722
G1 X50.691 Y49.56 E155.59377
G1 X61.791 Y60.66 E156.76656
G1 X61.09 Y58.827 E156.91318
G1 X49.99 Y47.727 E158.08597
G1 X49.289 Y45.895 E158.23251
G1 X60.389 Y56.995 E159.4053
G1 X59.689 Y55.163 E159.55182
G1 X48.588 Y44.062 E160.72472
G1 X47.887 Y42.23 E160.87127
G1 X58.987 Y53.33 E162.04406
G1 X58.286 Y51.498 E162.1906
G1 X47.186 Y40.398 E163.36339
G1 X46.485 Y38.565 E163.51001
G1 X57.585 Y49.665 E164.6828
G1 X56.884 Y47.833 E164.82935
G1 X45.784 Y36.733 E166.00214
G1 X45.083 Y34.9 E166.14875
G1 X56.183 Y46.001 E167.3216
G1 X55.482 Y44.168 E167.46821
G1 X44.382 Y33.068 E168.641
G1 X43.681 Y31.236 E168.78755
G1 X54.781 Y42.336 E169.96034
G1 X54.08 Y40.503 E170.10696
G1 X42.98 Y29.403 E171.27975
G1 X42.279 Y27.571 E171.42629
G1 X53.379 Y38.671 E172.59908
G1 X52.678 Y36.839 E172.74563
G1 X41.348 Y25.508 E173.94278
G1 X41.127 Y25.03 E173.98212
G1 X39.812 Y22.957 E174.16553
G1 X39.335 Y22.365 E174.22233
G1 X51.977 Y35.006 E175.55799
G1 X51.276 Y33.174 E175.70453
G1 X37.4 Y19.299 E177.17057
G1 X37.419 Y19.149 E177.18187
G1 X37.528 Y18.822 E177.20762
G1 X37.727 Y18.494 E177.23628
G1 X50.575 Y31.341 E178.59371
G1 X49.874 Y29.509 E178.74025
G1 X38.222 Y17.857 E179.97137
G1 X38.723 Y17.227 E180.0315
G1 X49.173 Y27.677 E181.13562
G1 X48.472 Y25.844 E181.28223
G1 X39.225 Y16.597 E182.25924
