;FLAVOR:RepRap
;TIME:7550
;Generated with Cura_SteamEngine 2.3.1
M104 S190
M109 S190

;LAYER_COUNT:250
;LAYER:-6
M107
G1 F2400 E-1
G1 Z20.074
G0 F6000 X35.095 Y17.428 Z.373
G1 Z.299
G1 F2400 E0
G1 F600 X35.577 Y16.687 E0.10989
G1 X37.423 Y14.369 E0.47825
G1 X37.814 Y13.936 E0.55077
G1 X38.253 Y13.559 E0.6227
G1 X38.722 Y13.25 E0.69252
G1 X39.228 Y13.003 E0.76252
G1 X39.775 Y12.815 E0.83442
G1 X40.335 Y12.7 E0.90548
G1 X40.894 Y12.657 E0.97518
G1 X41.466 Y12.685 E1.04637
G1 X42.026 Y12.786 E1.11711
G1 X42.564 Y12.954 E1.18717
G1 X43.091 Y13.195 E1.25921
G1 X43.556 Y13.484 E1.32726
G1 X44.148 Y13.984 E1.42359
G1 X44.825 Y14.659 E1.54243
G1 X44.928 Y14.764 E1.56072
G1 X45.193 Y15.045 E1.60873
G1 X45.414 Y15.296 E1.6503
G1 X47.089 Y17.33 E1.97785
G1 X47.422 Y17.788 E2.04824
G1 X49.06 Y20.369 E2.42824
G1 X49.352 Y20.906 E2.50423
G1 X50.629 Y23.676 E2.8834
G1 X50.746 Y23.953 E2.92077
G1 X65.033 Y61.3 E7.89148
G1 X65.131 Y61.58 E7.92836
G1 X65.995 Y64.355 E8.28965
G1 X66.14 Y64.951 E8.3659
G1 X66.641 Y67.795 E8.72488
G1 X66.708 Y68.405 E8.80117
G1 X66.845 Y71.282 E9.15921
G1 X66.835 Y71.903 E9.23642
G1 X66.605 Y74.765 E9.59334
G1 X66.515 Y75.384 E9.6711
G1 X65.921 Y78.209 E10.02995
G1 X65.756 Y78.803 E10.10659
G1 X64.81 Y81.521 E10.46434
G1 X64.569 Y82.092 E10.54138
G1 X63.281 Y84.675 E10.90018
G1 X62.982 Y85.192 E10.97442
G1 X61.366 Y87.607 E11.33564
G1 X61.004 Y88.08 E11.40969
G1 X59.091 Y90.274 E11.77154
G1 X58.671 Y90.698 E11.84572
G1 X56.519 Y92.61 E12.20357
G1 X56.25 Y92.835 E12.24717
G1 X50.027 Y97.692 E13.22848
G1 X50.027 Y104.673 E14.09628
G1 X81.27 Y104.673 E17.98009
G1 X81.166 Y102.571 E18.24171
G1 X81.21 Y102 E18.3129
G1 X81.324 Y101.444 E18.38346
G1 X81.511 Y100.903 E18.45461
G1 X81.757 Y100.4 E18.52422
G1 X82.072 Y99.923 E18.59528
G1 X82.447 Y99.489 E18.66658
G1 X82.869 Y99.106 E18.73742
G1 X83.33 Y98.786 E18.80718
G1 X84.066 Y98.426 E18.90903
G1 X86.852 Y97.359 E19.27989
G1 X87.398 Y97.189 E19.35097
G1 X87.958 Y97.088 E19.42171
G1 X88.53 Y97.06 E19.4929
G1 X89.095 Y97.104 E19.56335
G1 X89.652 Y97.22 E19.63407
G1 X90.179 Y97.399 E19.70326
G1 X90.704 Y97.657 E19.77598
G1 X91.172 Y97.966 E19.84569
G1 X91.607 Y98.339 E19.91693
G1 X91.984 Y98.756 E19.98681
G1 X92.31 Y99.223 E20.0576
G1 X92.676 Y99.971 E20.16112
G1 X94.631 Y105.084 E20.8416
G1 X94.795 Y105.597 E20.90855
G1 X95.037 Y106.542 E21.02981
G1 X95.147 Y107.123 E21.10332
G1 X95.183 Y107.689 E21.17382
G1 X95.185 Y108.624 E21.29005
G1 X95.149 Y109.207 E21.36266
G1 X95.055 Y109.716 E21.427
G1 X94.825 Y110.658 E21.54754
G1 X94.659 Y111.191 E21.61694
G1 X94.436 Y111.685 E21.68431
G1 X94.008 Y112.503 E21.79908
G1 X93.7 Y113.01 E21.87282
G1 X93.363 Y113.437 E21.94044
G1 X92.746 Y114.138 E22.05653
G1 X92.34 Y114.542 E22.12773
G1 X91.913 Y114.876 E22.19512
G1 X91.149 Y115.406 E22.31071
G1 X90.647 Y115.708 E22.38353
G1 X90.159 Y115.927 E22.45002
G1 X89.295 Y116.255 E22.56491
G1 X88.722 Y116.432 E22.63946
G1 X88.2 Y116.526 E22.70539
G1 X87.266 Y116.639 E22.82234
G1 X86.702 Y116.673 E22.89258
G1 X49.528 Y116.673 E27.51367
G1 X49.03 Y116.645 E27.57567
G1 X47.468 Y116.469 E27.77107
G1 X46.911 Y116.372 E27.84136
G1 X46.473 Y116.241 E27.89819
G1 X45.012 Y115.729 E28.09063
G1 X44.475 Y115.502 E28.16311
G1 X44.085 Y115.284 E28.21865
G1 X42.792 Y114.471 E28.40851
G1 X42.307 Y114.121 E28.48286
G1 X41.959 Y113.806 E28.54121
G1 X40.884 Y112.732 E28.73011
G1 X40.496 Y112.292 E28.80304
G1 X40.246 Y111.934 E28.85732
G1 X39.406 Y110.595 E29.05381
G1 X39.136 Y110.099 E29.12401
G1 X38.97 Y109.69 E29.17888
G1 X38.46 Y108.229 E29.37124
G1 X38.304 Y107.67 E29.44339
G1 X38.23 Y107.216 E29.50057
G1 X38.055 Y105.667 E29.69435
G1 X38.027 Y105.169 E29.75636
G1 X38.027 Y97.45 E30.7159
G1 X38.054 Y96.953 E30.77778
G1 X38.236 Y95.366 E30.97635
G1 X38.338 Y94.797 E31.04821
G1 X38.469 Y94.359 E31.10504
G1 X38.989 Y92.89 E31.29875
G1 X39.217 Y92.357 E31.37082
G1 X39.458 Y91.932 E31.43155
G1 X40.277 Y90.648 E31.62087
G1 X40.634 Y90.158 E31.69623
G1 X40.937 Y89.83 E31.75174
G1 X42.055 Y88.733 E31.94645
G1 X42.468 Y88.37 E32.0148
G1 X48.754 Y83.463 E33.00611
G1 X50.516 Y81.874 E33.30106
G1 X51.917 Y80.197 E33.5727
G1 X53.068 Y78.338 E33.8445
G1 X53.947 Y76.329 E34.1171
G1 X54.529 Y74.232 E34.38763
G1 X54.815 Y72.05 E34.66119
G1 X54.79 Y69.858 E34.9337
G1 X54.455 Y67.694 E35.20591
G1 X53.777 Y65.459 E35.49624
G1 X39.589 Y28.375 E40.43201
G1 X38.666 Y26.373 E40.70606
G1 X37.535 Y24.59 E40.96853
G1 X36.63 Y23.465 E41.14802
G1 X36.238 Y23.042 E41.21971
G1 X35.885 Y22.684 E41.2822
G1 X35.508 Y22.252 E41.35348
G1 X35.191 Y21.778 E41.42437
G1 X34.94 Y21.278 E41.49391
G1 X34.748 Y20.731 E41.56598
G1 X34.628 Y20.172 E41.63705
G1 X34.581 Y19.619 E41.70604
G1 X34.606 Y19.039 E41.77821
G1 X34.7 Y18.48 E41.84867
G1 X34.865 Y17.939 E41.91898
G1 X35.095 Y17.428 E41.98864
G0 F6000 X36 Y16.155
G1 F600 X36 Y22.8 E42.81468
G0 F6000 X39 Y27.097
G1 F600 X39 Y13.114 E44.5529
G0 F6000 X42 Y12.782
G1 F600 X42 Y34.676 E47.27454
G0 F6000 X45 Y42.518
G1 F600 X45 Y14.841 E50.71506
G0 F6000 X48 Y18.699
G1 F600 X48 Y50.359 E54.65071
G0 F6000 X51 Y58.2
G1 F600 X51 Y24.617 E58.8254
G0 F6000 X54 Y32.46
G1 F600 X54 Y66.194 E63.01887
G0 F6000 X54.229 Y69.905
G0 X54.254 Y72.017
G0 X54 Y76.138
G1 F600 X54 Y94.592 E65.31288
G0 F6000 X51 Y96.933
G1 F600 X51 Y81.294 E67.25696
G0 F6000 X48 Y84.051
G1 F600 X48 Y116.528 E71.29417
G0 F6000 X51 Y116.673
G1 F600 X51 Y104.673 E72.78589
G0 F6000 X54 Y104.673
G1 F600 X54 Y116.673 E74.2776
G0 F6000 X57 Y116.673
G1 F600 X57 Y104.673 E75.76932
G0 F6000 X60 Y104.673
G1 F600 X60 Y116.673 E77.26104
G0 F6000 X63 Y116.673
G1 F600 X63 Y104.673 E78.75275
G0 F6000 X66 Y104.673
G1 F600 X66 Y116.673 E80.24447
G0 F6000 X69 Y116.673
G1 F600 X69 Y104.673 E81.73619
G0 F6000 X72 Y104.673
G1 F600 X72 Y116.673 E83.22791
G0 F6000 X75 Y116.673
G1 F600 X75 Y104.673 E84.71962
G0 F6000 X78 Y104.673
G1 F600 X78 Y116.673 E86.21134
G0 F6000 X81 Y116.673
G1 F600 X81 Y104.673 E87.70306
G0 F6000 X84 Y98.458
G1 F600 X84 Y116.673 E89.96736
G0 F6000 X87 Y116.656
G1 F600 X87 Y97.312 E92.37201
G0 F6000 X90 Y97.339
G1 F600 X90 Y115.988 E94.69026
G0 F6000 X93 Y113.85
G1 F600 X93 Y100.819 E96.31014
G0 F6000 X80.668 Y104.1
G0 X50.599 Y104.101
G0 X50.592 Y97.968
G0 X63 Y85.161
G1 F600 X63 Y55.986 E99.93688
G0 F6000 X66 Y64.376
G1 F600 X66 Y77.834 E101.60984
G0 F6000 X60 Y89.232
G1 F600 X60 Y48.144 E106.71748
G0 F6000 X57 Y40.302
G1 F600 X57 Y92.183 E113.16679
G0 F6000 X45 Y86.393
G1 F600 X45 Y115.723 E116.8128
G0 F6000 X42 Y113.843
G1 F600 X42 Y88.786 E119.92763
G0 F6000 X39 Y92.864
G1 F600 X39 Y109.763 E122.02834
;TIME_ELAPSED:109.292623
;LAYER:-5
G0 F6000 X39.008 Y110.285 Z.599
;TYPE:SUPPORT
G1 F2400 X44.421 Y115.698 E122.60026
G1 X44.928 Y115.912 E122.64137
G1 X46.22 Y116.365 E122.74366
G1 X38.332 Y108.477 E123.57708
G1 X38.265 Y108.284 E123.59234
G1 X38.105 Y107.71 E123.63686
G1 X38.031 Y107.246 E123.67196
G1 X38.004 Y107.018 E123.68912
G1 X47.681 Y116.695 E124.71156
G1 X48.955 Y116.838 E124.80734
G1 X37.861 Y105.743 E125.97954
G1 X37.857 Y105.705 E125.9824
G1 X37.825 Y105.16 E126.02319
G1 X37.825 Y104.576 E126.06682
G1 X50.121 Y116.872 E127.36597
G1 X51.253 Y116.872 E127.45054
G1 X37.825 Y103.445 E128.86925
G1 X37.825 Y102.314 E128.95375
G1 X52.384 Y116.872 E130.49195
G1 X53.515 Y116.872 E130.57645
G1 X37.825 Y101.182 E132.2342
G1 X37.825 Y100.051 E132.3187
G1 X54.647 Y116.872 E134.096
G1 X55.778 Y116.872 E134.1805
G1 X37.825 Y98.919 E136.07736
G1 X37.825 Y97.788 E136.16186
G1 X56.91 Y116.872 E138.17826
G1 X58.041 Y116.872 E138.26276
G1 X37.879 Y96.71 E140.39301
G1 X37.994 Y95.694 E140.4694
G1 X59.172 Y116.872 E142.707
G1 X60.304 Y116.872 E142.79157
G1 X38.151 Y94.72 E145.13213
G1 X38.277 Y94.299 E145.16496
G1 X38.429 Y93.867 E145.19918
G1 X61.435 Y116.872 E147.62986
G1 X62.566 Y116.872 E147.71436
G1 X38.726 Y93.031 E150.23327
G1 X38.807 Y92.803 E150.25135
G1 X39.037 Y92.263 E150.2952
G1 X39.056 Y92.23 E150.29804
G1 X50.227 Y103.402 E151.47839
G1 X50.227 Y102.27 E151.56296
G1 X39.479 Y91.522 E152.69856
G1 X39.92 Y90.832 E152.75974
G1 X50.227 Y101.139 E153.84874
G1 X50.227 Y100.008 E153.93324
G1 X40.381 Y90.161 E154.97359
G1 X40.474 Y90.034 E154.98535
G1 X40.807 Y89.675 E155.02193
G1 X40.918 Y89.567 E155.0335
G1 X50.227 Y98.876 E156.01706
G1 X50.227 Y97.789 E156.09827
G1 X50.251 Y97.769 E156.1006
G1 X41.488 Y89.006 E157.02647
G1 X41.915 Y88.586 E157.07122
G1 X42.067 Y88.453 E157.08631
G1 X50.887 Y97.273 E158.0182
G1 X51.523 Y96.778 E158.07841
G1 X42.688 Y87.942 E159.01194
G1 X43.323 Y87.447 E159.07209
G1 X52.158 Y96.281 E160.00552
G1 X52.794 Y95.786 E160.06573
G1 X43.958 Y86.95 E160.99931
G1 X44.594 Y86.455 E161.05952
G1 X53.428 Y95.289 E161.9929
G1 X54.064 Y94.794 E162.05311
G1 X45.229 Y85.958 E162.98664
G1 X45.865 Y85.463 E163.04685
G1 X54.7 Y94.298 E163.98033
G1 X55.335 Y93.801 E164.04057
G1 X46.5 Y84.966 E164.97405
G1 X47.135 Y84.47 E165.03425
G1 X55.971 Y93.306 E165.96783
G1 X56.386 Y92.982 E166.00716
G1 X56.599 Y92.803 E166.02795
G1 X47.77 Y83.974 E166.96079
G1 X48.406 Y83.478 E167.02105
G1 X57.199 Y92.272 E167.95014
G1 X57.798 Y91.74 E168.01
G1 X49.015 Y82.956 E168.93803
G1 X49.609 Y82.419 E168.99786
G1 X58.397 Y91.207 E169.92637
G1 X58.813 Y90.838 E169.96791
G1 X58.986 Y90.665 E169.98619
G1 X50.205 Y81.883 E170.91402
G1 X50.371 Y81.733 E170.93073
G1 X50.741 Y81.288 E170.97397
G1 X59.53 Y90.077 E171.90258
G1 X60.057 Y89.473 E171.96247
G1 X51.257 Y80.673 E172.89225
G1 X51.754 Y80.078 E172.95017
G1 X51.769 Y80.053 E172.95235
G1 X60.584 Y88.868 E173.88371
G1 X61.111 Y88.264 E173.9436
G1 X52.201 Y79.354 E174.885
G1 X52.634 Y78.655 E174.94643
G1 X61.599 Y87.621 E175.8937
G1 X62.052 Y86.943 E175.95462
G1 X53.03 Y77.92 E176.9079
G1 X53.374 Y77.133 E176.97207
G1 X62.506 Y86.264 E177.93688
G1 X62.959 Y85.586 E177.9978
G1 X53.718 Y76.346 E178.97412
G1 X53.757 Y76.26 E178.98117
G1 X53.975 Y75.471 E179.04233
G1 X63.39 Y84.886 E180.03709
G1 X63.455 Y84.774 E180.04676
G1 X63.773 Y84.137 E180.09995
G1 X54.221 Y74.586 E181.10913
G1 X54.331 Y74.191 E181.13977
G1 X54.404 Y73.637 E181.18151
G1 X64.149 Y83.382 E182.21114
G1 X64.525 Y82.627 E182.27415
G1 X54.534 Y72.636 E183.32977
G1 X54.614 Y72.037 E183.37492
G1 X54.608 Y71.579 E183.40914
G1 X64.886 Y81.857 E184.49508
G1 X64.995 Y81.6 E184.51593
G1 X65.193 Y81.032 E184.56087
G1 X54.595 Y70.434 E185.68062
G1 X54.588 Y69.873 E185.72254
G1 X54.482 Y69.19 E185.77418
G1 X65.485 Y80.192 E186.93667
G1 X65.777 Y79.353 E187.00304
G1 X54.276 Y67.852 E188.21819
G1 X54.258 Y67.737 E188.22689
G1 X53.808 Y66.253 E188.34275
G1 X66.05 Y78.495 E189.6362
G1 X66.109 Y78.28 E189.65285
G1 X66.258 Y77.572 E189.70691
G1 X53.201 Y64.515 E191.08647
G1 X52.5 Y62.682 E191.23308
G1 X66.456 Y76.638 E192.70763
G1 X66.652 Y75.703 E192.779
G1 X51.799 Y60.85 E194.34832
G1 X51.097 Y59.017 E194.49496
G1 X66.809 Y74.729 E196.15504
G1 X66.893 Y73.681 E196.23359
G1 X50.396 Y57.185 E197.97656
G1 X49.695 Y55.352 E198.12317
G1 X66.977 Y72.634 E199.94913
G1 X67.035 Y71.906 E200.00369
G1 X67.041 Y71.566 E200.0291
G1 X48.994 Y53.519 E201.93589
G1 X48.293 Y51.687 E202.08243
G1 X67.003 Y70.397 E204.05927
G1 X66.947 Y69.21 E204.14805
G1 X47.591 Y49.854 E206.19314
G1 X46.891 Y48.022 E206.33966
G1 X66.866 Y67.997 E208.45016
G1 X66.839 Y67.762 E208.46783
G1 X66.642 Y66.642 E208.55279
G1 X46.189 Y46.189 E210.71379
G1 X45.488 Y44.356 E210.8604
G1 X66.399 Y65.268 E213.06984
G1 X66.336 Y64.912 E213.09685
G1 X66.187 Y64.297 E213.14413
G1 X66.019 Y63.756 E213.18645
G1 X44.787 Y42.524 E215.42976
G1 X44.085 Y40.691 E215.5764
G1 X65.507 Y62.113 E217.83978
G1 X65.322 Y61.519 E217.88626
G1 X65.217 Y61.219 E217.91
G1 X64.89 Y60.364 E217.97839
G1 X43.385 Y38.859 E220.25054
G1 X42.683 Y37.026 E220.39719
G1 X64.189 Y58.532 E222.66944
G1 X63.488 Y56.7 E222.81599
G1 X41.982 Y35.194 E225.08824
G1 X41.281 Y33.362 E225.23479
G1 X62.787 Y54.867 E227.50699
G1 X62.086 Y53.035 E227.65354
G1 X40.58 Y31.529 E229.92579
G1 X39.879 Y29.697 E230.07234
G1 X61.386 Y51.203 E232.34464
G1 X60.684 Y49.37 E232.49129
G1 X39.091 Y27.777 E234.77273
G1 X38.487 Y26.469 E234.88037
G1 X37.747 Y25.302 E234.98361
G1 X59.983 Y47.538 E237.33299
G1 X59.283 Y45.706 E237.47951
G1 X34.656 Y21.079 E240.08152
G1 X34.552 Y20.786 E240.10475
G1 X34.429 Y20.206 E240.14904
G1 X34.383 Y19.675 E240.18886
G1 X58.582 Y43.874 E242.74565
G1 X57.88 Y42.041 E242.89229
G1 X34.47 Y18.63 E245.36577
G1 X34.503 Y18.436 E245.38047
G1 X34.675 Y17.868 E245.42481
G1 X34.726 Y17.755 E245.43407
G1 X57.18 Y40.209 E247.80649
G1 X56.479 Y38.377 E247.95304
G1 X35.12 Y17.018 E250.20976
G1 X35.412 Y16.571 E250.24965
G1 X35.585 Y16.352 E250.2705
G1 X55.777 Y36.544 E252.40392
G1 X55.077 Y34.712 E252.55044
G1 X36.087 Y15.722 E254.55686
G1 X36.588 Y15.092 E254.617
G1 X54.376 Y32.88 E256.49642
G1 X53.675 Y31.047 E256.64304
G1 X37.089 Y14.462 E258.39541
G1 X37.272 Y14.233 E258.41731
G1 X37.614 Y13.855 E258.45539
G1 X52.974 Y29.215 E260.07828
G1 X52.273 Y27.383 E260.22482
G1 X38.227 Y13.337 E261.70888
G1 X38.624 Y13.073 E261.7445
G1 X38.941 Y12.919 E261.77083
G1 X51.572 Y25.551 E263.10543
G1 X50.927 Y23.864 E263.24037
G1 X50.862 Y23.709 E263.25292
G1 X39.765 Y12.612 E264.4254
G1 X40.302 Y12.5 E264.46638
G1 X40.75 Y12.466 E264.49994
G1 X49.898 Y21.614 E265.46649
G1 X49.53 Y20.815 E265.53221
G1 X49.225 Y20.257 E265.57972
G1 X48.451 Y19.036 E265.68773
G1 X41.991 Y12.575 E266.37032
G0 F6000 X59.055 Y91.107
G0 X50.592 Y97.968
G0 X50.599 Y104.101
G0 X51.297 Y104.471
G1 F2400 X63.698 Y116.872 E267.68057
G1 X64.829 Y116.872 E267.76507
G1 X52.428 Y104.471 E269.07532
G1 X53.559 Y104.471 E269.15982
G1 X65.961 Y116.872 E270.47012
G1 X67.092 Y116.872 E270.55462
G1 X54.691 Y104.471 E271.86487
G1 X55.822 Y104.471 E271.94936
G1 X68.223 Y116.872 E273.25961
G1 X69.355 Y116.872 E273.34418
G1 X56.953 Y104.471 E274.65449
G1 X58.085 Y104.471 E274.73906
G1 X70.486 Y116.872 E276.04931
G1 X71.617 Y116.872 E276.1338
G1 X59.216 Y104.471 E277.44405
G1 X60.348 Y104.471 E277.52863
G1 X72.749 Y116.872 E278.83887
G1 X73.88 Y116.872 E278.92337
G1 X61.479 Y104.471 E280.23362
G1 X62.61 Y104.471 E280.31812
G1 X75.012 Y116.872 E281.62842
G1 X76.143 Y116.872 E281.71292
G1 X63.742 Y104.471 E283.02317
G1 X64.873 Y104.471 E283.10767
G1 X77.274 Y116.872 E284.41791
G1 X78.406 Y116.872 E284.50249
G1 X66.004 Y104.471 E285.81279
G1 X67.136 Y104.471 E285.89736
G1 X79.537 Y116.872 E287.20761
G1 X80.668 Y116.872 E287.29211
G1 X68.267 Y104.471 E288.60236
G1 X69.398 Y104.471 E288.68685
G1 X81.8 Y116.872 E289.99716
G1 X82.931 Y116.872 E290.08165
G1 X70.53 Y104.471 E291.3919
G1 X71.661 Y104.471 E291.4764
G1 X84.062 Y116.872 E292.78665
G1 X85.194 Y116.872 E292.87122
G1 X72.793 Y104.471 E294.18147
G1 X73.924 Y104.471 E294.26597
G1 X86.325 Y116.872 E295.57622
G1 X86.713 Y116.873 E295.6052
G1 X87.269 Y116.839 E295.64682
G1 X87.406 Y116.822 E295.65713
G1 X75.055 Y104.471 E296.9621
G1 X76.187 Y104.471 E297.04667
G1 X88.408 Y116.692 E298.3379
G1 X88.768 Y116.627 E298.36523
G1 X89.308 Y116.461 E298.40744
G1 X77.318 Y104.471 E299.67427
G1 X78.449 Y104.471 E299.75876
G1 X90.129 Y116.151 E300.99283
G1 X90.245 Y116.107 E301.0021
G1 X90.74 Y115.884 E301.04266
G1 X90.899 Y115.789 E301.0565
G1 X79.581 Y104.471 E302.25232
G1 X80.712 Y104.471 E302.33682
G1 X91.586 Y115.345 E303.48573
G1 X92.028 Y115.039 E303.5259
G1 X92.243 Y114.87 E303.54633
G1 X81.018 Y103.645 E304.73232
G1 X80.965 Y102.557 E304.81371
G1 X80.971 Y102.467 E304.82044
G1 X92.834 Y114.33 E306.07385
G1 X92.897 Y114.269 E306.0804
G1 X93.369 Y113.734 E306.1337
G1 X81.111 Y101.476 E307.42884
G1 X81.129 Y101.389 E307.43548
G1 X81.323 Y100.827 E307.4799
G1 X81.412 Y100.645 E307.49504
