;FLAVOR:RepRap
;TIME:6926
;Generated with Cura_SteamEngine 2.3.1
M104 S190
M109 S190

;LAYER_COUNT:275
;LAYER:-6
M107
G1 F2400 E-1
G1 Z20.074
G0 F6000 X19.056 Y57.558 Z.373
G1 Z.299
G1 F2400 E0
G1 F600 X19.565 Y57.393 E0.06652
G1 X19.896 Y57.304 E0.10912
G1 X20.38 Y57.202 E0.17061
G1 X20.726 Y57.148 E0.21414
G1 X21.198 Y57.1 E0.27312
G1 X21.552 Y57.081 E0.31719
G1 X21.832 Y57.073 E0.35201
G1 X45.039 Y57.073 E3.23687
G1 X45.541 Y56.475 E3.33392
G1 X45.961 Y56.085 E3.40517
G1 X46.413 Y55.762 E3.47423
G1 X46.917 Y55.489 E3.54548
G1 X47.452 Y55.283 E3.61675
G1 X47.998 Y55.148 E3.68667
G1 X48.828 Y55.073 E3.79026
G1 X54.434 Y55.073 E4.48714
G1 X55.176 Y53.912 E4.65843
G1 X55.54 Y53.478 E4.72884
G1 X55.962 Y53.084 E4.80061
G1 X56.413 Y52.762 E4.86949
G1 X56.917 Y52.489 E4.94075
G1 X57.452 Y52.283 E5.01201
G1 X57.998 Y52.148 E5.08193
G1 X58.828 Y52.073 E5.18553
G1 X107.804 Y52.073 E11.27372
G1 X108.236 Y52.093 E11.32748
G1 X108.387 Y52.108 E11.34634
G1 X109.214 Y52.261 E11.45089
G1 X109.345 Y52.297 E11.46778
G1 X110.107 Y52.583 E11.56896
G1 X110.231 Y52.642 E11.58603
G1 X110.961 Y53.075 E11.69154
G1 X111.061 Y53.146 E11.70678
G1 X111.688 Y53.685 E11.80957
G1 X111.786 Y53.786 E11.82706
G1 X112.286 Y54.394 E11.92492
G1 X112.376 Y54.525 E11.94467
G1 X112.779 Y55.237 E12.04638
G1 X112.826 Y55.342 E12.06068
G1 X113.096 Y56.091 E12.15965
G1 X113.125 Y56.196 E12.17319
G1 X113.272 Y57.03 E12.27846
G1 X113.284 Y57.158 E12.29444
G1 X113.303 Y57.592 E12.34845
G1 X113.303 Y62.574 E12.96776
G1 X113.283 Y63.003 E13.02114
G1 X113.268 Y63.153 E13.03988
G1 X113.115 Y63.979 E13.14431
G1 X113.077 Y64.12 E13.16246
G1 X112.793 Y64.877 E13.26297
G1 X112.734 Y65.001 E13.28004
G1 X112.301 Y65.731 E13.38555
G1 X112.23 Y65.831 E13.40079
G1 X111.691 Y66.458 E13.50358
G1 X111.59 Y66.556 E13.52107
G1 X110.976 Y67.061 E13.6199
G1 X110.868 Y67.135 E13.63617
G1 X110.113 Y67.56 E13.74387
G1 X110.008 Y67.607 E13.75817
G1 X109.275 Y67.869 E13.85494
G1 X109.171 Y67.896 E13.8683
G1 X108.348 Y68.041 E13.97218
G1 X108.219 Y68.053 E13.98828
G1 X107.784 Y68.072 E14.04241
G1 X67.41 Y68.072 E19.06129
G1 X67.279 Y69.511 E19.24091
G1 X67.272 Y69.552 E19.24608
G1 X67.069 Y70.313 E19.34399
G1 X67.05 Y70.365 E19.35087
G1 X66.674 Y71.171 E19.46143
G1 X66.656 Y71.201 E19.46578
G1 X66.216 Y71.825 E19.5607
G1 X66.175 Y71.874 E19.56864
G1 X65.608 Y72.447 E19.66885
G1 X65.562 Y72.486 E19.67634
G1 X64.887 Y72.961 E19.77895
G1 X64.847 Y72.985 E19.78475
G1 X64.198 Y73.298 E19.87431
G1 X64.149 Y73.317 E19.88085
G1 X63.323 Y73.556 E19.98774
G1 X63.264 Y73.567 E19.9952
G1 X62.507 Y73.648 E20.08984
G1 X62.45 Y73.65 E20.09693
G1 X61.624 Y73.596 E20.19983
G1 X61.565 Y73.587 E20.20725
G1 X60.888 Y73.431 E20.29361
G1 X60.846 Y73.418 E20.29908
G1 X60.488 Y73.291 E20.3463
G1 X59.568 Y72.924 E20.46943
G1 X58.68 Y72.592 E20.58728
G1 X57.858 Y72.309 E20.69534
G1 X57.048 Y72.052 E20.80098
G1 X56.272 Y71.829 E20.90135
G1 X55.469 Y71.62 E21.0045
G1 X54.753 Y71.454 E21.09586
G1 X53.992 Y71.302 E21.19233
G1 X53.273 Y71.176 E21.28307
G1 X52.557 Y71.071 E21.37303
G1 X51.882 Y70.991 E21.45753
G1 X51.18 Y70.926 E21.54517
G1 X50.435 Y70.874 E21.638
G1 X49.76 Y70.843 E21.722
G1 X49.094 Y70.832 E21.8048
G1 X48.389 Y70.839 E21.89244
G1 X47.692 Y70.859 E21.97912
G1 X47.044 Y70.896 E22.05981
G1 X46.3 Y70.954 E22.15257
G1 X45.673 Y71.014 E22.23087
G1 X44.917 Y71.102 E22.32548
G1 X44.199 Y71.202 E22.4156
G1 X43.449 Y71.317 E22.50992
G1 X42.684 Y71.447 E22.60638
G1 X41.492 Y71.671 E22.75715
G1 X41.492 Y71.633 E22.76188
G1 X38.08 Y72.406 E23.19677
G1 X36.622 Y72.756 E23.38316
G1 X32.582 Y73.762 E23.90071
G1 X32.443 Y73.795 E23.91847
G1 X31.254 Y74.077 E24.07037
G1 X29.985 Y74.35 E24.23173
G1 X29.985 Y74.351 E24.23186
G1 X29.9 Y74.368 E24.24263
G1 X29.313 Y74.481 E24.31694
G1 X29.313 Y74.48 E24.31707
G1 X29.238 Y74.494 E24.32655
G1 X29.238 Y74.495 E24.32668
G1 X28.646 Y74.6 E24.40142
G1 X28.519 Y74.621 E24.41742
G1 X27.95 Y74.707 E24.48895
G1 X27.95 Y74.706 E24.48908
G1 X27.838 Y74.722 E24.50314
G1 X27.293 Y74.79 E24.57142
G1 X27.148 Y74.805 E24.58954
G1 X27.148 Y74.804 E24.58966
G1 X26.628 Y74.854 E24.6546
G1 X26.445 Y74.869 E24.67742
G1 X25.903 Y74.904 E24.74494
G1 X25.797 Y74.908 E24.75813
G1 X25.182 Y74.925 E24.83461
G1 X25.019 Y74.927 E24.85487
G1 X24.491 Y74.921 E24.92051
G1 X24.263 Y74.912 E24.94888
G1 X23.746 Y74.882 E25.01325
G1 X23.589 Y74.87 E25.03283
G1 X23.589 Y74.869 E25.03295
G1 X23.286 Y74.84 E25.07079
G1 X23.121 Y74.821 E25.09143
G1 X22.811 Y74.781 E25.13029
G1 X22.657 Y74.758 E25.14965
G1 X22.657 Y74.759 E25.14977
G1 X22.321 Y74.703 E25.19211
G1 X22.153 Y74.671 E25.21337
G1 X21.819 Y74.601 E25.2558
G1 X21.634 Y74.558 E25.27941
G1 X21.32 Y74.48 E25.31963
G1 X21.092 Y74.415 E25.3491
G1 X20.761 Y74.315 E25.39208
G1 X20.492 Y74.225 E25.42734
G1 X20.167 Y74.106 E25.47037
G1 X19.92 Y74.007 E25.50344
G1 X19.586 Y73.862 E25.54871
G1 X19.288 Y73.722 E25.58964
G1 X18.997 Y73.574 E25.63022
G1 X18.772 Y73.452 E25.66204
G1 X18.483 Y73.283 E25.70365
G1 X18.248 Y73.138 E25.73798
G1 X18.007 Y72.978 E25.77394
G1 X17.74 Y72.79 E25.81453
G1 X17.534 Y72.634 E25.84666
G1 X17.35 Y72.487 E25.87593
G1 X17.145 Y72.318 E25.90896
G1 X16.92 Y72.117 E25.94646
G1 X16.579 Y71.79 E26.00519
G1 X16.323 Y71.525 E26.051
G1 X16.042 Y71.206 E26.10384
G1 X15.88 Y71.012 E26.13526
G1 X15.74 Y70.835 E26.16331
G1 X15.584 Y70.624 E26.19593
G1 X15.31 Y70.226 E26.256
G1 X15.157 Y69.987 E26.29128
G1 X15.032 Y69.779 E26.32144
G1 X15.031 Y69.779 E26.32157
G1 X14.946 Y69.629 E26.343
G1 X14.81 Y69.38 E26.37827
G1 X14.689 Y69.139 E26.41179
G1 X14.467 Y68.663 E26.47708
G1 X14.324 Y68.317 E26.52362
G1 X14.157 Y67.863 E26.58375
G1 X14.012 Y67.406 E26.64336
G1 X13.928 Y67.088 E26.68424
G1 X13.833 Y66.637 E26.74154
G1 X13.774 Y66.26 E26.78897
G1 X13.722 Y65.766 E26.85072
G1 X13.705 Y65.453 E26.88969
G1 X13.704 Y64.919 E26.95607
G1 X13.724 Y64.56 E27.00076
G1 X13.772 Y64.095 E27.05887
G1 X13.773 Y64.091 E27.05939
G1 X13.83 Y63.727 E27.10519
G1 X13.927 Y63.271 E27.16314
G1 X14.032 Y62.883 E27.21311
G1 X14.176 Y62.44 E27.27101
G1 X14.305 Y62.106 E27.31552
G1 X14.512 Y61.645 E27.37834
G1 X14.673 Y61.33 E27.42232
G1 X14.912 Y60.915 E27.48185
G1 X15.086 Y60.646 E27.52167
G1 X15.421 Y60.187 E27.59231
G1 X15.629 Y59.932 E27.63322
G1 X15.943 Y59.583 E27.69158
G1 X16.212 Y59.314 E27.73887
G1 X16.562 Y59 E27.79732
G1 X16.837 Y58.776 E27.84141
G1 X17.257 Y58.471 E27.90594
G1 X17.566 Y58.272 E27.95162
G1 X17.978 Y58.036 E28.01065
G1 X18.289 Y57.879 E28.05395
G1 X18.741 Y57.679 E28.1154
G1 X19.056 Y57.558 E28.15734
G0 F6000 X18 Y58.024
G1 F600 X18 Y72.973 E30.01565
G0 F6000 X21 Y74.387
G1 F600 X21 Y57.12 E32.16211
G0 F6000 X24 Y57.073
G1 F600 X24 Y74.896 E34.37768
G0 F6000 X27 Y74.819
G1 F600 X27 Y57.073 E36.58368
G0 F6000 X30 Y57.073
G1 F600 X30 Y74.347 E38.73101
G0 F6000 X33 Y73.658
G1 F600 X33 Y57.073 E40.79268
G0 F6000 X36 Y57.073
G1 F600 X36 Y72.911 E42.7615
G0 F6000 X39 Y72.198
G1 F600 X39 Y57.073 E44.64169
G0 F6000 X42 Y57.073
G1 F600 X42 Y71.576 E46.44455
G0 F6000 X45 Y71.093
G1 F600 X45 Y57.073 E48.18737
G0 F6000 X48 Y55.147
G1 F600 X48 Y70.851 E50.13954
G0 F6000 X51 Y70.913
G1 F600 X51 Y55.073 E52.1086
G0 F6000 X54 Y55.073
G1 F600 X54 Y71.303 E54.12615
G0 F6000 X57 Y72.038
G1 F600 X57 Y52.457 E56.56026
G0 F6000 X60 Y52.073
G1 F600 X60 Y73.096 E59.17362
G0 F6000 X63 Y73.596
G1 F600 X63 Y52.073 E61.84914
G0 F6000 X66 Y52.073
G1 F600 X66 Y72.051 E64.3326
G0 F6000 X69 Y68.072
G1 F600 X69 Y52.073 E66.32143
G0 F6000 X72 Y52.073
G1 F600 X72 Y68.072 E68.31027
G0 F6000 X75 Y68.072
G1 F600 X75 Y52.073 E70.2991
G0 F6000 X78 Y52.073
G1 F600 X78 Y68.072 E72.28793
G0 F6000 X81 Y68.072
G1 F600 X81 Y52.073 E74.27676
G0 F6000 X84 Y52.073
G1 F600 X84 Y68.072 E76.26559
G0 F6000 X87 Y68.072
G1 F600 X87 Y52.073 E78.25442
G0 F6000 X90 Y52.073
G1 F600 X90 Y68.072 E80.24326
G0 F6000 X93 Y68.072
G1 F600 X93 Y52.073 E82.23209
G0 F6000 X96 Y52.073
G1 F600 X96 Y68.072 E84.22092
G0 F6000 X99 Y68.072
G1 F600 X99 Y52.073 E86.20975
G0 F6000 X102 Y52.073
G1 F600 X102 Y68.072 E88.19858
G0 F6000 X105 Y68.072
G1 F600 X105 Y52.073 E90.18741
G0 F6000 X108 Y52.083
G1 F600 X108 Y68.063 E92.17388
G0 F6000 X111 Y67.042
G1 F600 X111 Y53.103 E93.90664
G0 F6000 X15 Y60.778
G1 F600 X15 Y69.724 E95.01871
;TIME_ELAPSED:87.274716
;LAYER:-5
G0 F6000 X14.173 Y68.479 Z.599
;TYPE:SUPPORT
G1 F2400 X19.912 Y74.218 E95.62508
G1 X19.844 Y74.191 E95.63054
G1 X19.499 Y74.043 E95.65859
G1 X19.201 Y73.903 E95.68319
G1 X18.91 Y73.755 E95.70758
G1 X18.662 Y73.62 E95.72867
G1 X18.37 Y73.45 E95.75392
G1 X18.151 Y73.314 E95.77318
G1 X17.884 Y73.136 E95.79715
G1 X17.884 Y73.138 E95.7973
G1 X17.621 Y72.95 E95.82145
G1 X17.418 Y72.798 E95.8404
G1 X17.224 Y72.643 E95.85895
G1 X17.223 Y72.643 E95.85903
G1 X17.124 Y72.561 E95.86863
G1 X15.846 Y71.284 E96.00361
G0 F6000 X14.173 Y68.479
G1 F2400 X14.137 Y68.392 E96.01064
G1 X13.968 Y67.933 E96.04718
G1 X13.819 Y67.465 E96.08388
G1 X13.734 Y67.139 E96.10905
G1 X13.671 Y66.846 E96.13144
G1 X21.575 Y74.749 E96.9665
G1 X21.588 Y74.753 E96.96751
G1 X21.766 Y74.794 E96.98116
G1 X22.116 Y74.867 E97.00787
G1 X22.295 Y74.9 E97.02147
G1 X22.627 Y74.956 E97.04662
G1 X22.775 Y74.978 E97.0578
G1 X22.958 Y75.001 E97.07158
G1 X13.509 Y65.553 E98.06988
G1 X13.504 Y65.445 E98.07796
G1 X13.503 Y64.934 E98.11613
G1 X13.523 Y64.548 E98.14501
G1 X13.533 Y64.445 E98.15274
G1 X24.197 Y75.109 E99.27947
G1 X24.255 Y75.113 E99.28381
G0 F6000 X24.254 Y75.112
G1 F2400 X24.482 Y75.121 E99.30086
G1 X25.02 Y75.127 E99.34105
G1 X25.187 Y75.125 E99.35353
G1 X25.341 Y75.121 E99.36504
G1 X13.68 Y63.46 E100.5971
G1 X13.732 Y63.217 E100.61567
G1 X13.838 Y62.829 E100.64572
G1 X13.921 Y62.57 E100.66604
G1 X26.421 Y75.07 E101.98675
G1 X26.452 Y75.069 E101.98906
G1 X26.65 Y75.053 E102.00391
G1 X27.167 Y75.002 E102.04272
G1 X27.167 Y75.004 E102.04287
G1 X27.317 Y74.989 E102.05413
G0 F6000 X27.317 Y74.987
G1 F2400 X27.453 Y74.97 E102.06437
G1 X14.24 Y61.757 E103.46041
G1 X14.329 Y61.561 E103.47649
G1 X14.492 Y61.241 E103.50332
G1 X14.624 Y61.01 E103.5232
G1 X28.447 Y74.833 E104.98369
G1 X28.557 Y74.817 E104.992
G1 X28.678 Y74.797 E105.00116
G1 X29.274 Y74.692 E105.04637
G0 F6000 X29.274 Y74.69
G1 F2400 X29.349 Y74.677 E105.05206
G1 X29.41 Y74.665 E105.05671
G1 X15.07 Y60.325 E106.57182
G1 X15.253 Y60.074 E106.59503
G1 X15.489 Y59.786 E106.62285
G1 X15.571 Y59.694 E106.63206
G1 X30.352 Y74.476 E108.19382
G1 X31.283 Y74.275 E108.26498
G1 X16.126 Y59.119 E109.86636
G1 X16.422 Y58.853 E109.8961
G1 X16.716 Y58.614 E109.9244
G1 X16.738 Y58.599 E109.92639
G1 X32.197 Y74.058 E111.55974
G1 X32.49 Y73.988 E111.58225
G1 X32.686 Y73.942 E111.59729
G1 X33.107 Y73.836 E111.62972
G1 X17.406 Y58.135 E113.28864
G1 X17.471 Y58.093 E113.29442
G1 X17.864 Y57.868 E113.32825
G1 X18.134 Y57.732 E113.35084
G1 X34.013 Y73.611 E115.02856
G1 X34.919 Y73.386 E115.09831
G1 X18.925 Y57.392 E116.78818
G1 X18.983 Y57.369 E116.79284
G1 X19.512 Y57.198 E116.83438
G1 X19.789 Y57.125 E116.85578
G1 X35.825 Y73.16 E118.55004
G1 X36.669 Y72.951 E118.615
G1 X36.732 Y72.935 E118.61985
G1 X20.74 Y56.944 E120.30946
G1 X21.177 Y56.899 E120.34228
G1 X21.554 Y56.879 E120.37049
G1 X21.8 Y56.872 E120.38887
G1 X37.644 Y72.716 E122.0629
G1 X38.125 Y72.601 E122.09985
G1 X38.561 Y72.502 E122.13325
G1 X22.93 Y56.871 E123.78477
G1 X24.061 Y56.871 E123.86927
G1 X39.483 Y72.293 E125.49871
G1 X40.406 Y72.084 E125.56941
G1 X25.192 Y56.871 E127.17682
G1 X26.324 Y56.871 E127.26139
G1 X41.353 Y71.9 E128.84931
G1 X42.305 Y71.721 E128.92168
G1 X27.455 Y56.871 E130.49068
G1 X28.586 Y56.871 E130.57518
G1 X43.267 Y71.551 E132.12627
G1 X43.481 Y71.515 E132.14248
G1 X44.228 Y71.4 E132.19895
G1 X44.245 Y71.397 E132.20024
G1 X29.718 Y56.871 E133.73506
G1 X30.849 Y56.871 E133.81956
G1 X45.243 Y71.265 E135.34038
G1 X45.693 Y71.213 E135.37423
G1 X46.267 Y71.157 E135.41731
G1 X31.981 Y56.871 E136.92672
G1 X33.112 Y56.871 E137.01122
G1 X47.321 Y71.08 E138.5125
G1 X47.7 Y71.059 E138.54086
G1 X48.392 Y71.038 E138.59258
G1 X48.41 Y71.038 E138.59393
G1 X34.243 Y56.871 E140.09076
G1 X35.375 Y56.871 E140.17534
G1 X49.543 Y71.039 E141.67228
G1 X49.752 Y71.043 E141.6879
G1 X50.423 Y71.073 E141.73808
G1 X50.729 Y71.094 E141.76099
G1 X36.506 Y56.871 E143.26375
G1 X37.637 Y56.871 E143.34825
G1 X51.969 Y71.202 E144.86247
G1 X52.53 Y71.269 E144.90468
G1 X53.24 Y71.373 E144.95829
G1 X53.278 Y71.38 E144.96117
G1 X38.769 Y56.871 E146.49415
G1 X39.9 Y56.871 E146.57865
G1 X54.672 Y71.642 E148.13935
G1 X54.709 Y71.65 E148.14218
G1 X55.42 Y71.815 E148.19671
G1 X56.17 Y72.009 E148.25459
G1 X41.031 Y56.871 E149.85407
G1 X42.163 Y56.871 E149.93865
G1 X57.79 Y72.498 E151.58974
G1 X57.794 Y72.499 E151.59005
G1 X58.612 Y72.781 E151.65469
G1 X59.495 Y73.11 E151.72509
G1 X59.558 Y73.135 E151.73016
G1 X43.294 Y56.871 E153.44856
G1 X44.426 Y56.871 E153.53313
G1 X61.282 Y73.727 E155.31408
G1 X61.531 Y73.785 E155.33318
G1 X61.601 Y73.796 E155.33848
G1 X62.44 Y73.85 E155.40129
G1 X62.52 Y73.848 E155.40727
G1 X62.532 Y73.846 E155.40817
G1 X45.224 Y56.538 E157.23688
G1 X45.394 Y56.335 E157.25666
G1 X45.787 Y55.97 E157.29673
G1 X63.524 Y73.706 E159.17071
G1 X64.22 Y73.503 E159.22488
G1 X64.268 Y73.486 E159.22868
G1 X64.38 Y73.431 E159.23801
G1 X46.457 Y55.508 E161.13169
G1 X46.834 Y55.304 E161.16372
G1 X47.231 Y55.15 E161.19553
G1 X65.121 Y73.041 E163.08578
G1 X65.686 Y72.643 E163.13741
G1 X65.745 Y72.594 E163.14314
G1 X65.775 Y72.564 E163.14631
G1 X48.144 Y54.932 E165.0092
G1 X48.821 Y54.871 E165.05998
G1 X49.214 Y54.871 E165.08935
G1 X66.337 Y71.994 E166.89851
G1 X66.38 Y71.942 E166.90355
G1 X66.808 Y71.334 E166.9591
G1 X50.346 Y54.871 E168.69847
G1 X51.477 Y54.871 E168.78297
G1 X67.176 Y70.57 E170.44167
G1 X67.236 Y70.441 E170.4523
G1 X67.26 Y70.371 E170.45783
G1 X67.44 Y69.703 E170.50952
G1 X52.608 Y54.871 E172.07662
G1 X53.74 Y54.871 E172.16119
G1 X67.556 Y68.687 E173.62094
G1 X67.593 Y68.272 E173.65207
G1 X68.272 Y68.272 E173.7028
G1 X54.537 Y54.537 E175.15399
G1 X54.978 Y53.846 E175.21524
G1 X69.403 Y68.272 E176.73939
G1 X70.535 Y68.272 E176.82396
G1 X55.501 Y53.238 E178.4124
G1 X55.832 Y52.93 E178.44618
G1 X56.119 Y52.725 E178.47253
G1 X71.666 Y68.272 E180.11518
G1 X72.798 Y68.272 E180.19975
G1 X56.832 Y52.306 E181.88667
G0 F6000 X56.834 Y52.304
G1 F2400 X57.385 Y52.091 E181.9308
G1 X57.677 Y52.02 E181.95325
G1 X73.929 Y68.272 E183.67038
G1 X75.06 Y68.272 E183.75488
G1 X58.673 Y51.885 E185.48628
G1 X58.819 Y51.871 E185.49724
G1 X59.791 Y51.871 E185.56985
G1 X76.192 Y68.272 E187.30273
G1 X77.323 Y68.272 E187.38723
G1 X60.922 Y51.871 E189.1201
G1 X62.054 Y51.871 E189.20468
G1 X78.454 Y68.272 E190.9375
G1 X79.586 Y68.272 E191.02207
G1 X63.185 Y51.871 E192.75495
G1 X64.317 Y51.871 E192.83952
G1 X80.717 Y68.272 E194.57234
G1 X81.849 Y68.272 E194.65691
G1 X65.448 Y51.871 E196.38979
G1 X66.579 Y51.871 E196.47429
G1 X82.98 Y68.272 E198.20716
G1 X84.111 Y68.272 E198.29166
G1 X67.711 Y51.871 E200.02448
G1 X68.842 Y51.871 E200.10898
G1 X85.243 Y68.272 E201.84186
G1 X86.374 Y68.272 E201.92636
G1 X69.973 Y51.871 E203.65923
G1 X71.105 Y51.871 E203.7438
G1 X87.505 Y68.272 E205.47663
G1 X88.637 Y68.272 E205.5612
G1 X72.236 Y51.871 E207.29407
G1 X73.367 Y51.871 E207.37857
G1 X89.768 Y68.272 E209.11145
G1 X90.899 Y68.272 E209.19595
G1 X74.499 Y51.871 E210.92877
G1 X75.63 Y51.871 E211.01327
G1 X92.031 Y68.272 E212.74614
G1 X93.162 Y68.272 E212.83064
G1 X76.762 Y51.871 E214.56346
G1 X77.893 Y51.871 E214.64796
G1 X94.294 Y68.272 E216.38084
G1 X95.425 Y68.272 E216.46533
G1 X79.024 Y51.871 E218.19821
G1 X80.156 Y51.871 E218.28278
G1 X96.556 Y68.272 E220.0156
G1 X97.688 Y68.272 E220.10018
G1 X81.287 Y51.871 E221.83305
G1 X82.418 Y51.871 E221.91755
G1 X98.819 Y68.272 E223.65043
G1 X99.95 Y68.272 E223.73492
G1 X83.55 Y51.871 E225.46775
G1 X84.681 Y51.871 E225.55224
G1 X101.082 Y68.272 E227.28512
G1 X102.213 Y68.272 E227.36962
G1 X85.813 Y51.871 E229.10244
G1 X86.944 Y51.871 E229.18694
G1 X103.345 Y68.272 E230.91981
G1 X104.476 Y68.272 E231.00431
G1 X88.075 Y51.871 E232.73719
G1 X89.207 Y51.871 E232.82176
G1 X105.607 Y68.272 E234.55458
G1 X106.739 Y68.272 E234.63916
G1 X90.338 Y51.871 E236.37203
